!!!!SEGMENT: pl-sa--318-a-vii-78_gorczycki-grzegorz-gerwazy--in-virtute-tua-domine.krn
!!!cenid: 17xx:251
!!!COM: Gorczycki, Grzegorz Gerwazy
!!!COM-rismID: pe30009207
!!!CDT: ~1666-1734/04/30
!!!CNT: Polish
!!!OTL: In virtute tua Domine
!!!PDT: 1721
!!!AGN:
!!!YEC: Copyright 2022 Narodowy Instytut Fryderyka Chopina (https://polishscores.org)
!!!YEM: License CC-BY-4.0 (https://creativecommons.org/licenses/by/4.0)
!!!SMS-siglum: PL-SA
!!!SMS-shelfmark: 318/A VII 78
!!!SMS-shelfwork: W
!!!NIFC-rismSourceID: 1001039395
!!!NIFC-rismChildID: 1001039395
!!!NIFC-islandoraID: none
!!!URL-pdf-islandora:
!!!URL-scan: https://bc.bdsandomierz.pl/dlibra/publication/1623/edition/1591/content @EN{Scan in the Sandomierz Diocese Digital Library} @PL{Skany w portalu Cyfrowa Biblioteka Diecezjalna w Sandomierzu}
!!!IIIF:
!!!ONB-nifc:
!!!AIN: 1 alto 1 bass 2 clrno 1 organ 1 soprn 1 tenor 2 violn
!!!key: D
**kern	**fba	**kern	**kern	**kern	**text	**kern	**text	**kern	**text	**kern	**text	**kern	**kern
*part9	*	*part8	*part7	*part6	*	*part5	*	*part4	*	*part3	*	*part2	*part1
*staff9	*	*staff8	*staff7	*staff6	*	*staff5	*	*staff4	*	*staff3	*	*staff2	*staff1
*I"Organo	*	*I"Violino 2do.	*I"Violino 1mo.	*I"Baſso	*	*I"Tenore	*	*I"Alto.	*	*I"Canto	*	*I"Clarino 2do	*I"Clarino 1mo.
*	*	*mI"Violino II	*mI"Violino I	*mI"Basso	*	*	*	*mI"Alto	*	*mI"Soprano	*	*mI"Clarino II	*mI"Clarino I
*I'org	*	*I'vl 2	*I'vl 1	*I'B	*	*I'T	*	*I'A	*	*I'S	*	*I'clno 2 in D	*I'clno 1 in D
*Iorgan	*	*Ivioln	*Ivioln	*Ibass	*	*Itenor	*	*Ialto	*	*Isoprn	*	*Iclrno	*Iclrno
*ICklav	*	*ICstr	*ICstr	*ICvox	*	*ICvox	*	*ICvox	*	*ICvox	*	*ICbras	*ICbras
*clefF4	*	*clefG2	*clefG2	*clefF4	*	*clefC4	*	*clefC3	*	*clefC1	*	*clefG2	*clefG2
*	*	*	*	*	*	*	*	*	*	*	*	*ITrd-1c-2	*ITrd-1c-2
*k[f#c#]	*	*k[f#c#]	*k[f#c#]	*k[f#c#]	*	*k[f#c#]	*	*k[f#c#]	*	*k[f#c#]	*	*k[f#c#]	*k[f#c#]
*D:	*	*D:	*D:	*D:	*	*D:	*	*D:	*	*D:	*	*	*
*M4/4	*	*M4/4	*M4/4	*M2/2	*	*M4/4	*	*M4/4	*	*M4/4	*	*M4/4	*M4/4
*met(c)	*	*met(c)	*met(c)	*met(c|)	*	*met(c)	*	*met(c)	*	*met(c)	*	*met(c)	*met(c)
=1	=1	=1	=1	=1	=1	=1	=1	=1	=1	=1	=1	=1	=1
!LO:MO:mod=*all\left	!	!LO:MO:mod=*all\left	!LO:MO:mod=*all\left	!LO:MO:mod=*all\left	!	!LO:MO:mod=*all\left	!	!LO:MO:mod=*all\left	!	!LO:MO:mod=*all\left	!	!LO:MO:mod=*all\left	!LO:MO:mod=*all\left
*all\right	*	*all\right	*all\right	*all\right	*	*all\right	*	*all\right	*	*all\right	*	*all\right	*all\right
!LO:TX:a:t=P:problem=znak przykluczowy f# zapisany w dwóch oktawach:mod=	!	!LO:TX:a:t=P:problem=znak przykluczowy f# zapisany w dwóch oktawach:mod=	!LO:TX:a:t=P:problem=znak przykluczowy f# zapisany w dwóch oktawach:mod=	!LO:TX:a:t=P:problem=znak przykluczowy f# zapisany w dwóch oktawach:mod=	!	!	!	!	!	!	!	!	!
!LO:TX:b:Bi:t=In Virtute Solo:mod=	!	!LO:TX:b:Bi:t=In Virtute tua Domine.:mod=	!LO:TX:b:Bi:t=In Virtute tua Domine:mod=	!	!	!	!	!	!	!	!	!LO:TX:b:Bi:t=In Virtute:mod=	!LO:TX:b:Bi:t=In Virtute tua Domine.:mod=
4r	.	1r	4r	00r	.	00r	.	00r	.	00r	.	1r	4r
8.D/L	.	.	8.dd\L	.	.	.	.	.	.	.	.	.	8.dd\L
16AA/Jk	.	.	16ee\Jk	.	.	.	.	.	.	.	.	.	16ee\Jk
8D\L	.	.	8ff#\L	.	.	.	.	.	.	.	.	.	8ff#\L
8F#\	.	.	8dd\J	.	.	.	.	.	.	.	.	.	8dd\J
8G\	.	.	8gg\L	.	.	.	.	.	.	.	.	.	8gg\L
8E\J	.	.	8gg\J	.	.	.	.	.	.	.	.	.	8gg\J
=2	=2	=2-	=2	=2	=2	=2	=2	=2	=2	=2	=2	=2-	=2
8F#\L	.	4r	8.ff#\L	.	.	.	.	.	.	.	.	4r	8ff#\L
8D\J	.	.	.	.	.	.	.	.	.	.	.	.	8dd\J
.	.	.	16ee\Jk	.	.	.	.	.	.	.	.	.	.
4r	.	8.dd\L	8dd\L	.	.	.	.	.	.	.	.	8.dd\L	8.ff#\L
.	.	.	16ff#\L	.	.	.	.	.	.	.	.	.	.
.	.	16ee\Jk	16gg\JJ	.	.	.	.	.	.	.	.	16ee\Jk	16gg\Jk
2r	.	8ff#\L	8aa\L	.	.	.	.	.	.	.	.	8ff#\L	8aa\L
!	!	!LO:SIC:v:s=8dd\J	!	!	!	!	!	!	!	!	!	!	!
.	.	8ee\J	8ff#\J	.	.	.	.	.	.	.	.	8dd\J	8ff#\J
.	.	8gg\L	8bb\L	.	.	.	.	.	.	.	.	8gg\L	8bb\L
.	.	8gg\J	8bb\J	.	.	.	.	.	.	.	.	8gg\J	8bb\J
=3	=3	=3	=3	=3	=3	=3	=3	=3	=3	=3	=3	=3	=3
4D/	.	8.ff#\L	8.aa\L	.	.	.	.	.	.	.	.	8ff#\L	8aa\L
.	.	.	.	.	.	.	.	.	.	.	.	8dd\J	8ff#\J
.	.	16ee\Jk	16gg\Jk	.	.	.	.	.	.	.	.	.	.
4r	.	8dd\L	8ff#\L	.	.	.	.	.	.	.	.	4r	8rdd
.	.	8dd\J	8aa\	.	.	.	.	.	.	.	.	.	8aa\
!	!	!LO:SIC:v:s=4dd\	!	!	!	!	!	!	!	!	!	!	!
8G\L	.	4cc#\	16bb\L	.	.	.	.	.	.	.	.	2r	16bb\LL
.	.	.	16aa\	.	.	.	.	.	.	.	.	.	16aa\
8E\J	.	.	16gg\	.	.	.	.	.	.	.	.	.	16gg\
.	.	.	16ff#\JJ	.	.	.	.	.	.	.	.	.	16ff#\JJ
8A\L	.	8cc#\L	8ee\L	.	.	.	.	.	.	.	.	.	8ee\L
16A\L	.	8a\J	16ff#\L	.	.	.	.	.	.	.	.	.	16ff#\L
16G\JJ	.	.	16gg\JJ	.	.	.	.	.	.	.	.	.	16gg\JJ
=4	=4	=4	=4	=4	=4	=4	=4	=4	=4	=4	=4	=4	=4
8F#\L	.	4dd\	16aa\LL	.	.	.	.	.	.	.	.	4r	16aa\LL
.	.	.	16gg\	.	.	.	.	.	.	.	.	.	16gg\
8D\J	.	.	16ff#\	.	.	.	.	.	.	.	.	.	16ff#\
.	.	.	16ee\JJ	.	.	.	.	.	.	.	.	.	16ee\JJ
8r	.	8r	8dd\L	.	.	.	.	.	.	.	.	8rdd	8dd\L
!	!	!	!LO:SIC:v:s=16ff#\L	!	!	!	!	!	!	!	!	!	!
8D\	.	8aa\	16ee\L	.	.	.	.	.	.	.	.	8aa\	8ff#\J
.	.	.	16ff#\JJ	.	.	.	.	.	.	.	.	.	.
4G\	.	16bb\LL	16gg\LL	.	.	.	.	.	.	.	.	16bb\LL	16gg\LL
.	.	16aa\	16aa\	.	.	.	.	.	.	.	.	16aa\	16ff#\
.	.	16gg\	16gg\	.	.	.	.	.	.	.	.	16gg\	16ee\
.	.	16ff#\JJ	16ff#\JJ	.	.	.	.	.	.	.	.	16ff#\JJ	16dd\JJ
!	!	!	!LO:LB:g=original	!	!	!	!	!	!	!	!	!	!LO:TX:a:t=P:problem=mixed beam:mod=
4A\	.	8ee\L	8cc#\L	.	.	.	.	.	.	.	.	8ee\L	8a/L
!	!	!	!	!	!	!	!	!	!	!	!	!	!LO:SIC:v:s=8ff#\J
.	.	16ff#\L	16dd\L	.	.	.	.	.	.	.	.	16ff#\L	8ee\J
.	.	16gg\JJ	16ee\JJ	.	.	.	.	.	.	.	.	16gg\JJ	.
!	!	!	!	!	!	!	!	!	!	!	!	!	!LO:LB:g=original
=5	=5	=5	=5	=5	=5	=5	=5	=5	=5	=5	=5	=5	=5
4F#\	.	16aa\LL	16ff#\LL	00r	.	00r	.	00r	.	00r	.	16aa\LL	16ff#\LL
.	.	16gg\	16ee\	.	.	.	.	.	.	.	.	16gg\	16ee\
.	.	16ff#\	16dd\	.	.	.	.	.	.	.	.	16ff#\	16dd\
.	.	16ee\JJ	16cc#\JJ	.	.	.	.	.	.	.	.	16ee\JJ	16a\JJ
4G\	.	8dd\L	8b\L	.	.	.	.	.	.	.	.	8dd\L	8dd\L
.	.	16ee\L	16cc#\L	.	.	.	.	.	.	.	.	16ee\L	8dd\J
.	.	16ff#\JJ	16dd\JJ	.	.	.	.	.	.	.	.	16ff#\JJ	.
8E\L	.	8gg\L	8ee\L	.	.	.	.	.	.	.	.	8gg\L	8ee\L
16F#\L	.	8ff#\J	8dd\J	.	.	.	.	.	.	.	.	8ff#\J	8dd\J
16G\JJ	.	.	.	.	.	.	.	.	.	.	.	.	.
!LO:TX:a:t=P:problem=mixed beam:mod=	!	!	!	!	!	!	!	!	!	!	!	!	!
8A\L	.	4ee\	4cc#\	.	.	.	.	.	.	.	.	4ee\	4a/
8AA/J	.	.	.	.	.	.	.	.	.	.	.	.	.
!LO:LB:g=original	!	!LO:LB:g=original	!	!	!	!	!	!	!	!	!	!	!
=6	=6	=6	=6	=6	=6	=6	=6	=6	=6	=6	=6	=6	=6
8.D\L	.	8dd\L	8dd\L	.	.	.	.	.	.	.	.	4dd\	4f#/
.	.	8a\J	8a\J	.	.	.	.	.	.	.	.	.	.
16E\K	.	.	.	.	.	.	.	.	.	.	.	.	.
!	!	!LO:TX:a:t=P:problem=mixed beam:mod=	!LO:TX:a:t=P:problem=mixed beam:mod=	!	!	!	!	!	!	!	!	!	!
8F#\	.	8d/L	8d/L	.	.	.	.	.	.	.	.	8rdd	8rdd
8D\J	.	8ff#\J	8aa\J	.	.	.	.	.	.	.	.	8ff#\	8aa\
!	!	!	!	!	!	!	!	!	!	!	!	!LO:LB:g=original	!
4G\	.	16gg\LL	16bb\LL	.	.	.	.	.	.	.	.	16gg\LL	16bb\LL
.	.	16ff#\	16aa\	.	.	.	.	.	.	.	.	16ff#\	16aa\
.	.	16ee\	16gg\	.	.	.	.	.	.	.	.	16ee\	16gg\
.	.	16dd\JJ	16ff#\JJ	.	.	.	.	.	.	.	.	16dd\JJ	16ff#\JJ
4A\	.	8cc#\L	8ee\L	.	.	.	.	.	.	.	.	8a\L	8ee\L
.	.	16dd\L	16ff#\L	.	.	.	.	.	.	.	.	8ff#\J	16ff#\L
.	.	16ee\JJ	16gg\JJ	.	.	.	.	.	.	.	.	.	16gg\JJ
=7	=7	=7	=7	=7	=7	=7	=7	=7	=7	=7	=7	=7	=7
4F#\	.	16ff#\LL	16aa\LL	.	.	.	.	.	.	.	.	16ff#\LL	16aa\LL
.	.	16ee\	16gg\	.	.	.	.	.	.	.	.	16ee\	16gg\
.	.	16dd\	16ff#\	.	.	.	.	.	.	.	.	16dd\	16ff#\
.	.	16cc#\JJ	16ee\JJ	.	.	.	.	.	.	.	.	16a\JJ	16ee\JJ
4G\	.	8b\L	8dd\L	.	.	.	.	.	.	.	.	4dd\	8dd\L
.	.	16cc#\L	16ee\L	.	.	.	.	.	.	.	.	.	16ee\L
.	.	16dd\JJ	16ff#\JJ	.	.	.	.	.	.	.	.	.	16ff#\JJ
4E\	.	16ee\LL	16gg\LL	.	.	.	.	.	.	.	.	8dd\L	16gg\LL
.	.	16ff#\	16aa\	.	.	.	.	.	.	.	.	.	16aa\
.	.	16dd\	16ff#\	.	.	.	.	.	.	.	.	8dd\J	16ff#\
.	.	16ee\JJ	16gg\JJ	.	.	.	.	.	.	.	.	.	16gg\JJ
4A\	.	4cc#\	4ee\	.	.	.	.	.	.	.	.	4a/	4ee\
=8	=8	=8	=8	=8	=8	=8	=8	=8	=8	=8	=8	=8	=8
!	!	!	!	!	!	!	!	!	!	!	!	!LO:TX:a:t=P:problem=mixed beam:mod=	!
4D/	.	8dd\L	8dd\L	.	.	.	.	.	.	.	.	8f#/L	8dd\L
.	.	8ff#\	8aa\	.	.	.	.	.	.	.	.	8ff#\	8aa\
4BB/	.	8ff#\	8aa\	.	.	.	.	.	.	.	.	8ff#\	8aa\
!	!	!	!	!	!	!	!	!	!	!	!	!LO:SIC:v:s=8ee\J	!
.	.	8b\J	8gg\J	.	.	.	.	.	.	.	.	8ff#\J	8gg\J
!	!	!	!	!	!	!	!	!	!	!	!	!LO:SIC:v:s=8ee\L	!
4GG/	.	8ee\L	8gg\L	.	.	.	.	.	.	.	.	8ff#\L	8gg\L
.	.	8dd\J	8ff#\J	.	.	.	.	.	.	.	.	8dd\J	8ff#\J
4AA/	.	4cc#\	4ee\	.	.	.	.	.	.	.	.	4a/	4ee\
!	!	!	!LO:LB:g=original	!	!	!	!	!	!	!	!	!	!
=9	=9	=9	=9	=9	=9	=9	=9	=9-	=9-	=9	=9	=9	=9
!LO:TX:b:Bi:t=Alt:problem=tekst wyblakły:mod=	!	!LO:TX:b:Bi:t=A:problem=tekst wyblakły:mod=	!LO:TX:b:Bi:t=Alt:problem=tekst wyblakły, a obok mocno widoczna kropka:mod=	!	!	!	!	!	!	!	!	!	!
4D/	.	4dd\	4ff#\	00r	.	00r	.	4r	.	0r	.	4f#/	4dd\
!	!	!	!	!	!	!	!	!LO:MO:mod=!LO&colon;TX&colon;a&colon;i&colon;t=Solo	!	!	!	!	!
!	!	!	!	!	!	!	!	!LO:TX:b:i:rj:t=solo:mod=	!	!	!	!	!
8d\L	.	4r	4rdd	.	.	.	.	8d\	In	.	.	4rg	4r
!	!	!	!	!	!	!	!	!	!LO:MO:mod=vir-	!	!	!	!
8c#\J	.	.	.	.	.	.	.	8e\	Vir-	.	.	.	.
8d\L	.	2rg	2rdd	.	.	.	.	8f#\	-tu-	.	.	2rg	2r
8F#\J	.	.	.	.	.	.	.	8d\	-te	.	.	.	.
8G\L	.	.	.	.	.	.	.	8g\	tu-	.	.	.	.
8E\J	.	.	.	.	.	.	.	8g\	-a	.	.	.	.
!	!	!	!	!	!	!	!	!	!	!	!	!	!LO:LB:g=original
=10	=10	=10	=10	=10	=10	=10	=10	=10	=10	=10	=10	=10	=10
8F#\L	.	4r	4r	.	.	.	.	8.f#\	Do-	.	.	4r	4r
8D\J	.	.	.	.	.	.	.	.	.	.	.	.	.
.	.	.	.	.	.	.	.	16e\	-mi-	.	.	.	.
8rF	.	8rdd	8rdd	.	.	.	.	4d\	-ne	.	.	8r	8r
8d\	.	8ff#\	8aa\	.	.	.	.	.	.	.	.	8ff#\	8aa\
4G\	.	16gg\LL	16bb\LL	.	.	.	.	2r	.	.	.	16gg\LL	16bb\LL
.	.	16ff#\	16aa\	.	.	.	.	.	.	.	.	16ff#\	16aa\
.	.	16ee\	16gg\	.	.	.	.	.	.	.	.	16ee\	16gg\
.	.	16dd\JJ	16ff#\JJ	.	.	.	.	.	.	.	.	16dd\JJ	16ff#\JJ
4A\	.	8cc#\L	8ee\L	.	.	.	.	.	.	.	.	4a/	4ee\
.	.	16b\L	16dd\L	.	.	.	.	.	.	.	.	.	.
.	.	16cc#\JJ	16ee\JJ	.	.	.	.	.	.	.	.	.	.
!	!	!LO:LB:g=original	!	!	!	!	!	!	!	!	!	!	!
=11	=11	=11	=11	=11	=11	=11	=11	=11	=11	=11-	=11-	=11	=11
!LO:TX:b:Bi:t=a2:problem=tekst wyblakły:mod=	!	!	!	!	!	!	!	!	!	!	!	!	!
4D/	.	4dd\	8ff#\L	.	.	.	.	4r	.	4r	.	4f#/	4dd\
.	.	.	8ff#\J	.	.	.	.	.	.	.	.	.	.
*	*	*	*	*	*	*	*	*	*ij	*	*	*	*
4r	.	4r	4rdd	.	.	.	.	8d\	In	8f#/	In	4rg	4r
!	!	!	!	!	!	!	!	!LO:TX:b:i:t=a2:rj:mod=	!LO:MO:mod=vir-	!	!	!	!
.	.	.	.	.	.	.	.	8e\	Vir-	8g/	vir-	.	.
!LO:LB:g=original	!	!	!	!	!	!	!	!	!	!	!	!	!
8D\L	.	2r	2rdd	.	.	.	.	8f#\	-tu-	8a/	-tu-	2rg	2r
8F#\	.	.	.	.	.	.	.	8d\	-te	8f#/	-te	.	.
8G\	.	.	.	.	.	.	.	8g\	tu-	8b\	tu-	.	.
8E\J	.	.	.	.	.	.	.	8g\	-a	8b\	-a	.	.
!	!	!	!	!	!	!	!	!	!	!	!	!	!
=12	=12	=12	=12-	=12	=12	=12	=12	=12	=12	=12	=12	=12-	=12
!	!	!	!	!	!	!	!	!	!	!	!LO:MO:mod=Do-	!	!
8F#\L	.	0r	0r	.	.	.	.	8.f#\	Do-	8.a\	D(o-	0r	0r
8D\J	.	.	.	.	.	.	.	.	.	.	.	.	.
!	!	!	!	!	!	!	!	!	!	!	!LO:MO:mod=-mi-	!	!
.	.	.	.	.	.	.	.	16e\	-mi-	16g\	-mi)-	.	.
!	!	!	!	!	!	!	!	!LO:LB:g=original	!	!	!	!	!
8r	.	.	.	.	.	.	.	8d\	-ne	4f#\	-ne	.	.
*	*	*	*	*	*	*	*	*	*Xij	*	*	*	*
8F#\	.	.	.	.	.	.	.	8a\	lae-	.	.	.	.
8G\L	.	.	.	.	.	.	.	16b\LL	-ta-	2re	.	.	.
.	.	.	.	.	.	.	.	16a\	.	.	.	.	.
8E\	.	.	.	.	.	.	.	16g\	.	.	.	.	.
.	.	.	.	.	.	.	.	16f#\JJ	.	.	.	.	.
8A\	.	.	.	.	.	.	.	8e\L	.	.	.	.	.
8G\J	.	.	.	.	.	.	.	16f#\L	.	.	.	.	.
.	.	.	.	.	.	.	.	16g\JJ	.	.	.	.	.
=13	=13	=13	=13	=13	=13	=13	=13	=13	=13	=13	=13	=13	=13
8F#\L	.	.	.	00r	.	00r	.	16a\LL	.	4r	.	.	.
.	.	.	.	.	.	.	.	16g\	.	.	.	.	.
8D\J	.	.	.	.	.	.	.	16f#\	.	.	.	.	.
.	.	.	.	.	.	.	.	16e\JJ	.	.	.	.	.
8r	.	.	.	.	.	.	.	8d\L	.	8r	.	.	.
8D\	.	.	.	.	.	.	.	16e\L	.	8a\	lae-	.	.
.	.	.	.	.	.	.	.	16f#\JJ	.	.	.	.	.
4G\	.	.	.	.	.	.	.	16g\LL	.	16b\LL	-ta-	.	.
.	.	.	.	.	.	.	.	16f#\	.	16a\	.	.	.
.	.	.	.	.	.	.	.	16e\	.	16g\	.	.	.
.	.	.	.	.	.	.	.	16d\JJ	.	16f#\JJ	.	.	.
4A\	.	.	.	.	.	.	.	8c#\L	.	8e\L	.	.	.
.	.	.	.	.	.	.	.	16d\L	.	16f#\L	.	.	.
.	.	.	.	.	.	.	.	16e\JJ	.	16g\JJ	.	.	.
!	!	!	!	!	!	!	!	!	!	!	!	!LO:LB:g=original	!
=14	=14	=14-	=14-	=14	=14	=14	=14	=14	=14	=14	=14	=14	=14-
4F#\	.	2rdd	2rdd	.	.	.	.	16f#\LL	.	16a\LL	.	2r	2r
.	.	.	.	.	.	.	.	16e\	.	16g\	.	.	.
.	.	.	.	.	.	.	.	16d\	.	16f#\	.	.	.
.	.	.	.	.	.	.	.	16c#\JJ	.	16e\JJ	.	.	.
4G\	.	.	.	.	.	.	.	8B\L	.	8d\L	.	.	.
.	.	.	.	.	.	.	.	16c#\L	.	16e\L	.	.	.
.	.	.	.	.	.	.	.	16d\JJ	.	16f#\JJ	.	.	.
*	*	*	*	*	*	*	*	*	*	*custos:g	*	*	*
!	!	!	!	!	!	!	!	!	!	!LO:LB:g=original	!	!	!
8E\L	.	4rdd	4rdd	.	.	.	.	8e\	.	8g/	.	4r	4r
16F#\L	.	.	.	.	.	.	.	16d\	-bi-	16f#/	-bi-	.	.
16G\JJ	.	.	.	.	.	.	.	16d\	-tur	16f#/	-tur	.	.
!LO:TX:a:t=P:problem=mixed beam:mod=	!	!	!	!	!	!	!	!	!	!	!LO:MO:mod=ius-	!	!
8A\L	.	8rdd	8rdd	.	.	.	.	4c#/	ius-	4e/	juſ-	8r	8rdd
8AA/J	.	8ee\	8aa\	.	.	.	.	.	.	.	.	8ee\	8aa\
=15	=15	=15	=15	=15	=15	=15	=15	=15	=15	=15	=15	=15	=15
!LO:TX:a:t=P:problem=mixed beam:mod=	!	!	!	!	!	!	!	!	!	!	!	!	!
8D/L	.	8dd\L	16aa\L	.	.	.	.	4d\	-tus	4f#/	-tus	8dd\L	16aa\LL
.	.	.	16bb\	.	.	.	.	.	.	.	.	.	16bb\
8d\	.	8dd\	16aa\	.	.	.	.	.	.	.	.	8ff#\	16aa\
.	.	.	16bb\J	.	.	.	.	.	.	.	.	.	16bb\JJ
!	!	!	!LO:TX:a:t=P:problem=mixed beam:mod=	!	!	!	!	!	!	!	!	!	!
8c#\	.	8ee\	8aa\L	.	.	.	.	8r	.	4r	.	8ee\	8aa\L
!	!	!	!	!	!	!	!	!	!	!	!	!LO:TX:a:t=P:problem=w źródle niepotrzebna kreska taktowa:mod=	!
8d\J	.	8ff#\J	8a/J	.	.	.	.	8a\	lae-	.	.	8dd\J	8aa\J
!	!	!	!	!	!	!	!	!LO:LB:g=original	!	!	!	!	!
8A\L	.	2rdd	2r	.	.	.	.	16a\LL	-ta-	2r	.	2r	2rdd
.	.	.	.	.	.	.	.	16b\	.	.	.	.	.
8d\	.	.	.	.	.	.	.	16a\	.	.	.	.	.
.	.	.	.	.	.	.	.	16b\JJ	.	.	.	.	.
8c#\	.	.	.	.	.	.	.	16a\LL	.	.	.	.	.
.	.	.	.	.	.	.	.	16b\	.	.	.	.	.
8d\J	.	.	.	.	.	.	.	16a\	.	.	.	.	.
.	.	.	.	.	.	.	.	16b\JJ	.	.	.	.	.
!LO:LB:g=original	!	!	!	!	!	!	!	!	!	!	!	!	!
=16	=16	=16	=16	=16	=16	=16	=16	=16	=16	=16	=16	=16	=16
8F#\L	.	2r	2r	.	.	.	.	8.a\	.	4r	.	2r	2rdd
8c#\	.	.	.	.	.	.	.	.	.	.	.	.	.
.	.	.	.	.	.	.	.	16g\	-bi-	.	.	.	.
8d\	.	.	.	.	.	.	.	8f#\	-tur	8r	.	.	.
*	*	*	*	*	*	*	*	*	*ij	*	*	*	*
8F#\J	.	.	.	.	.	.	.	8a\	lae-	8dd\	lae-	.	.
!LO:TX:a:t=P:problem=mixed beam:mod=	!	!	!	!	!	!	!	!	!	!	!	!	!
8G\L	.	4r	4r	.	.	.	.	8b\	-ta-	8dd\	-ta-	4r	4rdd
8E\	.	.	.	.	.	.	.	16g\	-bi-	16dd\	-bi-	.	.
!	!	!	!	!	!	!	!	!	!	!	!LO:MO:mod=-tur	!	!
.	.	.	.	.	.	.	.	16f#\	-tur	16dd\	-t(ur)	.	.
*	*	*	*	*	*	*	*	*	*Xij	*	*	*	*
!	!	!	!	!	!	!	!	!	!	!	!LO:MO:mod=ius-	!	!
8A\	.	8r	8rdd	.	.	.	.	4e\	ius-	4cc#\	juſ-	8r	8rdd
8AA/J	.	8ee\	8aa\	.	.	.	.	.	.	.	.	8ee\	8aa\
=17	=17	=17	=17	=17	=17	=17	=17	=17	=17	=17	=17	=17	=17
!LO:TX:a:t=P:problem=mixed beam:mod=	!	!	!	!	!	!	!	!	!	!	!	!	!
!	!	!	!	!	!	!LO:TX:a:t=P:problem=w źródle tajemniczy znak nad tą pauzą:mod=	!	!	!	!	!	!	!
8D/L	.	8ff#\L	16aa\LL	0r	.	0r	.	4d\	-tus	4dd\	-tus	8ff#\L	16aa\LL
.	.	.	16bb\	.	.	.	.	.	.	.	.	.	16bb\
8d\	.	8ff#\	16aa\	.	.	.	.	.	.	.	.	8ff#\	16aa\
.	.	.	16bb\JJ	.	.	.	.	.	.	.	.	.	16bb\JJ
!	!	!	!LO:LB:g=original	!	!	!	!	!	!	!	!	!	!
!	!	!	!LO:TX:a:t=P:problem=mixed beam:mod=	!	!	!	!	!	!	!	!	!	!
8c#\	.	8ee\	8aa\L	.	.	.	.	8r	.	8r	.	8ee\	8aa\L
8d\J	.	8ff#\J	8a/J	.	.	.	.	8f#\	lae-	8a\	lae-	8ff#\J	8aa\J
8A\L	.	2r	2r	.	.	.	.	8e\L	-ta-	16a\LL	-ta-	2r	2rdd
.	.	.	.	.	.	.	.	.	.	16b\	.	.	.
8d\	.	.	.	.	.	.	.	8f#\	.	16a\	.	.	.
.	.	.	.	.	.	.	.	.	.	16b\JJ	.	.	.
8c#\	.	.	.	.	.	.	.	8e\	.	16a\LL	.	.	.
.	.	.	.	.	.	.	.	.	.	16b\	.	.	.
8d\J	.	.	.	.	.	.	.	8f#\J	.	16a\	.	.	.
.	.	.	.	.	.	.	.	.	.	16b\JJ	.	.	.
!	!	!	!	!	!	!	!	!	!	!	!	!	!
=18	=18	=18-	=18	=18	=18	=18	=18	=18	=18	=18	=18	=18	=18-
!	!	!	!	!	!	!	!	!	!	!	!	!	!LO:TX:a:B:t=2:mod=
!	!	!	!	!	!	!	!	!	!	!	!	!	!LO:TX:b:B:t=2:mod=
8A\L	.	0r	0r	.	.	.	.	8.e\	.	8.a\	.	0r	0r
8c#\	.	.	.	.	.	.	.	.	.	.	.	.	.
.	.	.	.	.	.	.	.	16e\	-bi-	16g\	-bi-	.	.
8d\	.	.	.	.	.	.	.	8f#\	-tur	8f#\	-tur	.	.
*	*	*	*	*	*	*	*	*	*ij	*	*	*	*
8F#\J	.	.	.	.	.	.	.	8f#\	lae-	8a\	lae-	.	.
*	*	*	*	*	*	*	*	*	*	*custos:b	*	*	*
!	!	!	!	!	!	!	!	!	!	!LO:LB:g=original	!	!	!
!LO:TX:a:t=P:problem=mixed beam:mod=	!	!	!	!	!	!	!	!	!	!	!	!	!
8G\L	.	.	.	.	.	.	.	8d\	-ta-	8b\	-ta-	.	.
8E\	.	.	.	.	.	.	.	16e\	-bi-	16g\	-bi-	.	.
!	!	!	!	!	!	!	!	!	!	!LO:TX:a:t=P:problem=w źródle po nucie 16f# przekreślona kreska taktowa:mod=	!	!	!
.	.	.	.	.	.	.	.	16d\	-tur	16f#\	-tur	.	.
*	*	*	*	*	*	*	*	*	*Xij	*	*	*	*
!	!	!	!	!	!	!	!	!LO:LB:g=original	!	!	!LO:MO:mod=-ius-	!	!
8A\	.	.	.	.	.	.	.	4c#/	ius-	4e\	jus-	.	.
8AA/J	.	.	.	.	.	.	.	.	.	.	.	.	.
=19	=19	=19	=19	=19	=19	=19	=19	=19	=19	=19	=19	=19	=19
!	!	!	!	!	!	!	!	!	!	!LO:MO:mod=!null:null	!	!	!
!	!	!	!	!	!	!	!	!	!	!LO:N:vis=4	!	!	!
!	!	!	!	!	!	!	!	!	!	!LO:MO:mod=4f#	!	!	!
8D\L	.	.	.	1r	.	1r	.	4d\	-tus	8f#\	-tus	.	.
!	!	!	!	!	!	!	!	!	!	!LO:MO:mod=.:null	!	!	!
8E\	.	.	.	.	.	.	.	.	.	8r	.	.	.
!	!	!	!	!	!	!	!	!	!	!LO:TX:a:t=P:problem=w źródle dodatkowa ósemka 8dd nieposiadająca swojej sylaby; prawdopodobnie błąd skryptora:mod=	!	!	!
!	!	!	!	!	!	!	!	!	!	!LO:MO:mod=8r	!	!	!
8F#\	.	.	.	.	.	.	.	8r	.	8dd\	.	.	.
8D\J	.	.	.	.	.	.	.	8a\	lae-	8dd\	lae-	.	.
!LO:TX:a:t=P:problem=mixed beam:mod=	!	!	!	!	!	!	!	!	!	!	!	!	!
8G\L	.	.	.	.	.	.	.	8b\	-ta-	8dd\	-ta-	.	.
8E\	.	.	.	.	.	.	.	16g\	-bi-	16dd\	-bi-	.	.
.	.	.	.	.	.	.	.	16f#\	-tur	16dd\	-tur	.	.
8A\	.	.	.	.	.	.	.	4e\	ius-	4cc#\	jus-	.	.
8AA/J	.	.	.	.	.	.	.	.	.	.	.	.	.
=20	=20	=20	=20-	=20	=20	=20	=20	=20	=20	=20	=20	=20-	=20-
!LO:TX:b:Bi:t=Tutti:mod=	!	!	!	!	!	!	!	!	!	!	!LO:MO:mod=-tus	!	!
4D/	.	4r	4r	4r	.	4r	.	4f#\	-tus	4dd\	-tuſ	4r	4r
!!LO:TX:t= :mod=Tutti
!	!	!LO:TX:b:Bi:t=Tutti:problem=tekst wyblakły:mod=	!LO:TX:b:Bi:t=Tutti:problem=tekst wyblakły:mod=	!	!LO:MO:mod=in	!	!LO:MO:mod=in	!LO:TX:b:i:t=T:rj:mod=	!	!	!	!	!
8D/L	.	8ff#\L	8aa\L	8D/	In	8d\	In	8d\	in	8a\	in	8ff#\L	8aa\L
!	!	!	!	!	!LO:MO:mod=vir-	!	!LO:MO:mod=vir-	!	!	!	!	!	!
8AA/J	.	8ee\J	8aa\J	8AA/	Vir-	8c#\	Vir-	8e\	vir-	8a\	vir-	8ee\J	8aa\J
!	!	!	!	!	!	!	!	!LO:TX:a:t=P:problem=w źródle tajemniczy znak pomiędzy nutami 8e i 8f#:mod=	!	!	!	!	!
8F#\L	.	8dd\L	8ff#\L	8D\	-tu-	8d\	-tu-	8f#\	-tu-	8a\	-tu-	8dd\L	8ff#\L
8D\	.	8dd\	8aa\	8F#\	-te	8d\	-te	8d\	-te	8f#/	-te	8a\J	8aa\J
!	!	!	!	!	!	!	!	!	!	!	!	!	!LO:LB:g=original
8G\	.	8dd\	8bb\	8G\	tu-	8d\	tu-	8g\	tu-	8b\	tu-	8dd\L	8bb\L
8E\J	.	8ee\J	8gg\J	8E\	-a	8c#\	-a	8g\	-a	8e\	-a	8ee\J	8gg\J
=21	=21	=21	=21	=21	=21	=21	=21	=21	=21	=21	=21	=21	=21
!	!	!	!	!	!LO:MO:mod=Do-	!	!	!	!	!	!LO:MO:mod=Do-	!	!
8.F#\L	.	8.a/L	8.aa\L	8.F#\	do-	8.d\	Do-	8.f#\	Do-	8.a\	D(o-	8.a/L	8.aa\L
!	!	!	!	!	!	!	!	!	!	!	!LO:MO:mod=-mi-	!	!
16E\Jk	.	16a/Jk	16gg\Jk	16E\	-mi-	16d\	-mi-	16f#\	-mi-	16a\	-mi)-	16a/Jk	16gg\Jk
8D\L	.	4a/	8ff#\L	4D\	-ne	4d\	-ne	4f#\	-ne	4a\	-ne	8a/L	8ff#\L
8F#\J	.	.	8aa\J	.	.	.	.	.	.	.	.	8dd/J	8aa\J
!	!	!LO:TX:a:t=P:problem=w źródle nietypowe łamanie systemu:mod=	!	!	!	!	!	!	!	!	!	!	!
!	!	!LO:LB:g=original	!	!	!	!	!	!	!	!	!	!	!
8G\L	.	8dd\L	16gg\LL	2r	.	2r	.	2re	.	2re	.	8dd\L	16gg\LL
.	.	.	16aa\	.	.	.	.	.	.	.	.	.	16aa\
8E\J	.	16ee\L	16gg\	.	.	.	.	.	.	.	.	16ee\L	16gg\
.	.	16dd\JJ	16ff#\JJ	.	.	.	.	.	.	.	.	16dd\JJ	16ff#\JJ
!LO:LB:g=original	!	!	!	!	!	!	!	!	!	!	!	!	!
!LO:TX:a:t=P:problem=mixed beam:mod=	!	!	!	!	!	!	!	!	!	!	!	!	!
8A\L	.	8cc#\L	8ee\L	.	.	.	.	.	.	.	.	8a/L	4ee\
8AA/J	.	8cc#\J	8ee\J	.	.	.	.	.	.	.	.	8a/J	.
!	!	!	!	!	!	!	!	!	!	!	!	!LO:LB:g=original	!
=22	=22	=22	=22	=22	=22	=22	=22	=22	=22	=22	=22	=22	=22
4D/	.	4dd\	4dd\	4r	.	4r	.	4r	.	4r	.	4f#/	4dd\
*	*	*	*	*	*ij	*	*ij	*	*ij	*	*	*	*
!	!	!	!	!	!LO:MO:mod=in	!	!LO:MO:mod=in	!	!	!	!	!	!
8D/L	.	8ff#\L	8aa\L	8D/	In	8d\	In	8d\	in	8a\	in	8ff#\L	8aa\L
!	!	!	!	!	!LO:MO:mod=vir-	!	!LO:MO:mod=vir-	!	!	!	!	!	!
8AA/J	.	8ee\J	8aa\J	8AA/	Vir-	8c#\	Vir-	8e\	vir-	8a\	vir-	8ee\J	8aa\J
!	!	!	!	!	!	!	!	!	!	!LO:LB:g=original	!	!	!
8D\L	.	8dd\L	8ff#\L	8D\	-tu-	8d\	-tu-	8f#\	-tu-	8a\	-tu-	8dd\L	8ff#\L
8F#\J	.	8dd\	8aa\	8F#\	-te	8d\	-te	8d\	-te	8f#/	-te	8a\J	8aa\J
!	!	!	!	!	!	!LO:LB:g=original	!	!LO:LB:g=original	!	!	!	!	!
8G\L	.	8dd\	8bb\	8G\	tu-	8d\	tu-	8g\	tu-	8b\	tu-	8dd\L	8bb\L
8E\J	6	8ee\J	8gg\J	8E\	-a	8c#\	-a	8g\	-a	8e/	-a	8ee\J	8gg\J
=23	=23	=23	=23	=23	=23	=23	=23	=23	=23	=23	=23	=23	=23
!	!	!	!	!	!LO:MO:mod=Do-	!	!	!	!	!	!LO:MO:mod=Do-	!	!
8.F#\L	.	8.dd\L	8.aa\L	8.F#\	do-	8.d\	Do-	8.f#\	Do-	8.a\	D(o-	8.dd\L	8.aa\L
!	!	!LO:SIC:s=16ddJk	!	!	!	!	!	!	!	!	!LO:MO:mod=-mi-	!	!
16E\Jk	.	16dd\K	16gg\Jk	16E\	-mi-	16d\	-mi-	16f#\	-mi-	16a\	-mi)-	16dd\Jk	16gg\Jk
!	!	!	!	!LO:LB:g=original	!	!	!	!	!	!	!	!	!
!	!	!LO:SIC:s=8ddL	!	!	!	!	!	!	!	!	!	!LO:TX:a:t=P:problem=mixed beam:mod=	!LO:TX:a:t=P:problem=mixed beam:mod=
8D\L	.	8dd\	8ff#\L	8D\	-ne	8d\	-ne	8f#\	-ne	8a\	-ne	8dd\L	8ff#\L
*	*	*	*	*	*Xij	*	*Xij	*	*Xij	*	*	*	*
!	!	!	!	!	!LO:MO:mod=lae-	!	!	!	!	!	!	!	!
8D\J	.	8dd\J	8ff#\J	8D\	le-	8d\	lae-	8f#\	lae-	8a\	lae-	8d/J	8d/J
8D/L	.	8dd\L	8.ff#\L	8.D\	-ta-	8.d\	-ta-	8.f#\	-ta-	8.a\	-ta-	8f#/L	8f#/L
8D/	.	8dd\	.	.	.	.	.	.	.	.	.	16f#/L	16f#/L
.	.	.	16ff#\Jk	16D\	-bi-	16d\	-bi-	16f#\	-bi-	16a\	-bi-	16f#/JJ	16f#/JJ
8D/	.	8dd\	8ff#\L	8D\	-tur	8d\	-tur	8f#\	-tur	8a\	-tur	8a/L	8a/L
*	*	*	*	*	*ij	*	*ij	*	*ij	*	*ij	*	*
!	!	!	!	!	!LO:MO:mod=lae-	!	!	!	!	!	!	!	!
8AA/J	.	8ee\J	8aa\J	8AA/	le-	8c#\	lae-	8f#\	lae-	8a\	lae-	8a/J	8a/J
=24	=24	=24	=24	=24	=24	=24	=24	=24	=24	=24	=24	=24	=24
!LO:TX:a:t=P:problem=mixed beam:mod=	!	!	!	!	!	!	!	!	!	!	!	!	!
8D/L	.	8.dd\L	8.aa\L	8.D\	-ta-	8.d\	-ta-	8.f#\	-ta-	8.a\	-ta-	8f#/L	8a/L
8D/	.	.	.	.	.	.	.	.	.	.	.	8f#/J	8d/J
!	!	!LO:SIC:s=16eeJk	!	!	!	!	!	!	!	!	!	!	!
.	.	16ee\K	16gg\Jk	16D\	-bi-	16d\	-bi-	16f#\	-bi-	16a\	-bi-	.	.
!	!	!LO:SIC:s=8ff#L	!LO:LB:g=original	!	!	!	!	!	!	!	!	!	!
8D/	.	8ff#\	8ff#\L	8D\	-tur	8d\	-tur	8f#\	-tur	8a\	-tur	8r	8r
*	*	*	*	*	*	*	*	*	*	*	*Xij	*	*
!	!	!	!	!	!LO:MO:mod=lae-	!	!	!	!	!	!	!	!
8A\J	.	8cc#\J	8ee\J	8A\	le-	8e\	lae-	8a\	lae-	8a\	lae-	8a/	8aa\
8.A\L	.	8.cc#\L	8aa\L	8.A\	-ta-	8.e\	-ta-	8.a\	-ta-	8.cc#\	-ta-	8ee\L	8aa\L
.	.	.	8aa\	.	.	.	.	.	.	.	.	16ee\L	8aa\
!LO:SIC:s=16AJk	!	!LO:SIC:s=16cc#Jk	!	!	!	!	!	!	!	!	!	!	!
16A\K	.	16cc#\K	.	16A\	-bi-	16e\	-bi-	16a\	-bi-	16cc#\	-bi-	16ee\JJ	.
!LO:SIC:s=8AL	!	!LO:SIC:s=8cc#L	!	!	!	!	!	!	!	!	!	!	!
8A\	.	8cc#\	8aa\	8A\	-tur	8c#\	-tur	8a\	-tur	8cc#\	-tur	8ee\L	8aa\
!	!	!	!LO:TX:a:t=P:problem:# above:mod=	!	!LO:MO:mod=lae-	!	!	!	!	!	!	!	!
8E\J	.	8b\J	8gg#X\J	8E\	le-	8e\	lae-	8b\	lae-	8b\	lae-	8ee\J	8gg#X\J
=25	=25	=25	=25	=25	=25	=25	=25	=25	=25	=25	=25	=25	=25
8A\L	.	8.cc#\L	8.aa\L	8.A\	-ta-	8.e\	-ta-	8.a\	-ta-	8.cc#\	-ta-	8.ee\L	8.aa\L
8A\	.	.	.	.	.	.	.	.	.	.	.	.	.
!	!	!LO:SIC:s=16cc#Jk	!	!	!	!	!	!	!	!	!	!	!LO:SIC:s=16aaJk
.	.	16cc#\K	16aa\Jk	16A\	-bi-	16e\	-bi-	16a\	-bi-	16cc#\	-bi-	16ee\Jk	16aa\K
!	!	!	!	!	!	!LO:LB:g=original	!	!	!	!	!	!	!
!	!	!LO:SIC:s=8cc#L	!	!	!	!	!	!	!	!	!	!LO:TX:a:t=P:problem=mixed beam:mod=	!LO:SIC:s=8aaL
8A\	.	8cc#\	8aa\L	8A\	-tur	8e\	-tur	8a\	-tur	8cc#\	-tur	8ee\L	8aa\
*	*	*	*	*	*	*	*	*	*	*	*ij	*	*
!LO:SIC:v:s=8C#\J	!	!	!	!	!LO:MO:mod=lae-	!	!	!	!	!	!	!	!
8D\J	.	8a\J	8ee\J	8C#/	le-	8e\	lae-	8a\	lae-	8ee\	lae-	8a/J	8aa\J
!	!	!	!	!	!	!	!	!LO:LB:g=original	!	!	!	!	!LO:LB:g=original
4D\	.	8.dd\L	8ff#\L	8D\	-ta-	8B\	-ta-	8f#\	-ta-	8ff#\	-ta-	8dd\L	8ff#\L
!	!	!	!	!	!	!	!	!	!	!	!	!LO:TX:a:t=P:problem=w źródle po nucie przekreślona kreska taktowa:mod=	!
.	.	.	8ff#\J	16D\	-bi-	16B\	-bi-	16g\	-bi-	16dd\	-bi-	8aa\	8ff#\J
!	!	!LO:SIC:s=16cc#Jk	!	!	!	!	!	!	!	!	!	!	!
.	.	16cc#\K	.	16D\	-tur	16B\	-tur	16a\	-tur	16cc#\	-tur	.	.
*	*	*	*	*	*Xij	*	*Xij	*	*Xij	*	*Xij	*	*
!	!	!LO:SIC:s=8bL	!	!	!	!	!	!	!	!LO:LB:g=original	!LO:MO:mod=ius-	!	!
4E\	.	8b\	4ee\	4E\	ius-	4B\	ius-	4e\	ius-	4b\	juſ-	8aa\	4ee\
!	!	!	!	!	!	!	!	!	!	!	!	!LO:SIC:v:s=8gg#\J	!
.	.	8ee\J	.	.	.	.	.	.	.	.	.	8gg\J	.
=26	=26	=26	=26	=26	=26	=26	=26	=26	=26	=26	=26	=26	=26
!	!	!	!	!	!	!	!	!LO:SIC:v:s=4e\	!	!	!	!	!
8AA/L	.	8cc#\L	8ee\L	4AA/	-tus	4c#\	-tus	4f#\	-tus	4cc#\	-tus	4aa\	4ee\
8BB/	.	8b\	8dd\	.	.	.	.	.	.	.	.	.	.
8C#/	.	8a\	8cc#\	4r	.	4r	.	4r	.	4r	.	4rdd	4r
8AA/J	.	8cc#\J	8ee\J	.	.	.	.	.	.	.	.	.	.
!	!	!LO:LB:g=original	!	!	!	!	!	!	!	!	!	!	!
8D/L	.	16b\LL	16ff#\LL	2rBB	.	2r	.	2r	.	2r	.	2r	2r
.	.	16cc#\	16ee\	.	.	.	.	.	.	.	.	.	.
8BB/J	.	16b\	16dd\	.	.	.	.	.	.	.	.	.	.
.	.	16a\JJ	16cc#\JJ	.	.	.	.	.	.	.	.	.	.
!LO:LB:g=original	!	!	!	!	!	!	!	!	!	!	!	!	!
!LO:TX:a:t=P:problem=mixed beam:mod=	!	!	!	!	!	!	!	!	!	!	!	!	!
8E\L	.	4g#X/	4b/	.	.	.	.	.	.	.	.	.	.
8EE/J	.	.	.	.	.	.	.	.	.	.	.	.	.
!	!	!	!	!LO:LB:g=original	!	!	!	!	!	!	!	!	!
=27	=27	=27	=27	=27	=27	=27	=27	=27	=27	=27	=27	=27	=27
4AA/	.	4a/	4cc#\	4r	.	4r	.	4r	.	4r	.	4r	4r
!	!	!	!	!	!	!	!	!LO:TX:a:t=P:problem=w źródle słowa "in virtute" zamazane:mod=	!	!	!	!	!
8A\L	.	8aa\L	8ee\L	8A\	in	8c#\	in	8a\	in	8ee\	in	8ee\L	8aa\L
!	!	!	!	!	!LO:MO:mod=vir-	!	!	!	!	!	!	!	!LO:SIC:s=8bbJ
8E\J	.	8bb\J	8ee\J	8E\	Vir-	8B\	vir-	8g#X\	vir-	8ee\	vir-	8ee\J	8bb\
!	!	!	!	!	!	!	!	!	!	!	!	!LO:LB:g=original	!
!	!	!LO:TX:a:t=P:problem=mixed beam:mod=	!	!	!	!	!	!	!	!	!	!	!LO:SIC:s=8aaL
8A\L	.	8aa\L	8ee\L	8A\	-tu-	8c#\	-tu-	8a\	-tu-	8ee\	-tu-	8ee\L	8aa\
!	!	!LO:SIC:s=8a	!LO:SIC:s=8ee	!	!	!	!	!	!	!	!	!	!
8c#\	.	8a/J	8ee\J	8c#\	-te	8e\	-te	8a\	-te	8cc#\	-te	8ee\	8aa\
!	!	!LO:SIC:s=8aa	!LO:SIC:s=8ff#	!	!	!	!	!	!	!	!	!	!
8d\	.	8aa\L	8ff#\L	8d\	tu-	8d\	tu-	8a\	tu-	8ff#\	tu-	8ff#\	8aa\
!	!	!	!	!	!	!	!	!	!	!	!	!	!LO:SIC:v:s=8ff#\J
8B\J	.	8gg#X\J	8cc#\J	8B\	-a	8d\	-a	8d\	-a	8b\	-a	8dd\J	8gg\J
=28	=28	=28	=28	=28	=28	=28	=28	=28	=28	=28	=28	=28	=28
!	!	!	!	!	!LO:MO:mod=Do-	!	!	!	!LO:MO:mod=Do-	!	!LO:MO:mod=Do-	!	!
8.c#\L	.	8aa\L	8.ee\L	8.c#\	do-	8.c#\	Do-	8.a\	D(o-	8.ee\	D(o-	8.ee\L	8aa\L
.	.	8aa\	.	.	.	.	.	.	.	.	.	.	8aa\
!	!	!	!	!	!	!	!	!	!LO:MO:mod=-mi-	!	!LO:MO:mod=-mi-	!	!
16B\Jk	.	.	16ee\Jk	16B\	-mi-	16c#\	-mi-	16a\	-mi)-	16ee\	-mi)-	16ee\Jk	.
!LO:TX:a:t=P:problem=mixed beam:mod=	!	!	!	!LO:MO:mod=4A	!	!	!	!	!	!	!	!	!
8A\L	.	8aa\	8ee\L	8A\	-ne	4c#\	-ne	4a\	-ne	4ee\	-ne	8ee\L	8aa\
!	!	!	!	!LO:MO:mod=.	!	!	!	!	!	!	!	!	!
8C#/J	.	8ee\J	8aa\J	8rF	.	.	.	.	.	.	.	8ee\J	8aa\J
8D/L	.	16ff#\LL	16aa\LL	2rF	.	2r	.	2re	.	2r	.	8ff#\L	8aa\L
!	!	!	!LO:TX:a:t=P:problem:# above:mod=	!	!	!	!	!	!	!	!	!	!
.	.	16ee\	16gg#X\	.	.	.	.	.	.	.	.	.	.
8BB/J	.	16dd\	16aa\	.	.	.	.	.	.	.	.	8dd\J	8aa\
.	.	16cc#\JJ	16bb\JJ	.	.	.	.	.	.	.	.	.	.
!LO:TX:a:t=P:problem=mixed beam:mod=	!	!	!LO:TX:a:t=P:problem:# above:mod=	!	!	!	!	!	!	!	!	!	!LO:SIC:v:s=8ff#\
8E\L	.	8b\L	8gg#X\L	.	.	.	.	.	.	.	.	4ee\	8gg\
!	!	!	!	!	!	!	!	!	!	!	!	!	!LO:SIC:v:s=8ff#\J
8EE/J	.	16a\L	16ff#\L	.	.	.	.	.	.	.	.	.	8gg\J
.	.	16b\JJ	16gg#\JJ	.	.	.	.	.	.	.	.	.	.
!	!	!	!LO:LB:g=original	!	!	!	!	!	!	!	!	!	!
=29	=29	=29	=29	=29	=29	=29	=29	=29	=29	=29-	=29-	=29	=29
4AA/	.	4cc#\	4aa\	4rF	.	4r	.	4r	.	4r	.	4ee\	4aa\
*	*	*	*	*	*ij	*	*	*	*ij	*	*ij	*	*
8A\L	.	8aa\L	8ee\L	8A\	in	8c#\	in	8a\	in	8ee\	in	16ee\LL	8aa\L
.	.	.	.	.	.	.	.	.	.	.	.	16ee\	.
!	!	!	!	!	!LO:MO:mod=vir-	!	!	!LO:TX:a:t=P:problem:# above:mod=	!	!	!	!	!
8E\J	.	8bb\J	8ee\J	8E\	Vir-	8B\	vir-	8g#X\	vir-	8ee\	vir-	16ee\	8bb\J
.	.	.	.	.	.	.	.	.	.	.	.	16ee\JJ	.
!	!	!	!	!	!	!LO:LB:g=original	!	!	!	!	!	!	!
!	!	!LO:TX:a:t=P:problem=mixed beam:mod=	!	!	!	!	!	!	!	!	!	!	!
8A\L	.	8aa\L	8ee\L	8A\	-tu-	8c#\	-tu-	8a\	-tu-	8ee\	-tu-	4ff#\	8aa\L
!	!	!LO:SIC:s=8a	!	!	!	!	!	!	!	!	!	!	!
8c#\	.	8a/J	8ee\	8c#\	-te	8e\	-te	8a\	-te	8cc#\	-te	.	8aa\
!	!	!LO:SIC:s=8aa	!	!	!	!	!	!	!	!	!	!	!
8d\	.	8aa\L	8ff#\	8d\	tu-	8d\	tu-	8a\	tu-	8ff#\	tu-	4dd	8aa\
!	!	!LO:TX:a:t=P:problem:# above:mod=	!	!	!	!	!	!	!	!	!	!	!LO:SIC:v:s=8ff#\J
8B\J	.	8gg#X\J	8dd\J	8B\	-a	8d\	-a	8d\	-a	8b\	-a	.	8gg\J
=30	=30	=30	=30	=30	=30	=30	=30	=30	=30	=30	=30	=30	=30
!	!	!	!	!	!LO:MO:mod=Do-	!	!	!	!LO:MO:mod=Do-	!	!LO:MO:mod=Do-	!	!
8.c#\L	.	8.aa\L	8.ee\L	8.c#\	do-	8.c#\	Do-	8.a\	D(o-	8.ee\	D(o-	8.ee\L	8aa\L
.	.	.	.	.	.	.	.	.	.	.	.	.	8aa\J
!	!	!	!	!	!	!	!	!	!LO:MO:mod=-mi-	!	!LO:MO:mod=-mi-	!	!
16B\Jk	.	16aa\Jk	16ee\Jk	16B\	-mi-	16c#\	-mi-	16a\	-mi)-	16ee\	-mi)-	16ee\Jk	.
!LO:TX:a:t=P:problem=mixed beam:mod=	!	!	!	!	!	!	!	!	!	!	!	!	!
8A\L	.	8aa\L	8ee\L	8A\	-ne	8c#\	-ne	8a\	-ne	8ee\	-ne	4ee\	4aa\
*	*	*	*	*	*Xij	*	*	*	*Xij	*	*Xij	*	*
!	!	!	!	!	!	!	!	!	!	!LO:SIC:v:s=8cc#	!	!	!
8AA/J	.	8cc#\J	8aa\J	8A\	lae-	8e\	lae-	8a\	lae-	8b\	lae-	.	.
*	*	*	*	*	*	*	*	*	*	*custos:cc#	*	*	*
!	!	!	!	!	!	!	!	!	!	!LO:LB:g=original	!	!	!
8A\L	.	8.cc#\L	8.aa\L	8.A\	-ta-	8.e\	-ta-	8.a\	-ta-	8.cc#\	-ta-	2r	2rdd
8A\	.	.	.	.	.	.	.	.	.	.	.	.	.
!	!	!LO:SIC:s=16cc#Jk	!	!	!	!	!	!	!	!	!	!	!
.	.	16cc#\K	16aa\Jk	16A\	-bi-	16e\	-bi-	16a\	-bi-	16cc#\	-bi-	.	.
!	!	!LO:SIC:s=8cc#L	!	!LO:LB:g=original	!	!	!	!	!LO:MO:mod=-tur	!	!	!	!
8A\	.	8cc#\	8aa\L	8A\	-tur	8e\	-tur	8a\	-tu(r)	8cc#\	-tur	.	.
*	*	*	*	*	*ij	*	*ij	*	*	*	*ij	*	*
!	!	!	!	!	!	!	!	!LO:TX:a:t=P:problem:# above:mod=	!	!	!	!	!
8E\J	.	8ee\J	8bb\J	8E\	lae-	8e\	lae-	8g#X\	lae-	8b\	lae-	.	.
!	!	!LO:LB:g=original	!	!	!	!	!	!	!	!	!	!	!
=31	=31	=31	=31	=31	=31	=31	=31	=31	=31	=31	=31	=31	=31
8A\L	.	8.cc#\L	8.aa\L	8.A\	-ta-	8.e\	-ta-	8.a\	-ta-	8.cc#\	-ta-	00r	00r
8A\	.	.	.	.	.	.	.	.	.	.	.	.	.
.	.	16b\Jk	16aa\Jk	16A\	-bi-	16d\	-bi-	16a\	-bi-	16cc#\	-bi-	.	.
!	!	!	!	!	!	!	!	!LO:LB:g=original	!	!	!	!	!
8A\	.	8a\L	8ee\L	8A\	-tur	8c#\	-tur	8a\	-tur	8cc#\	-tur	.	.
*	*	*	*	*	*	*	*	*	*	*	*Xij	*	*
*	*	*	*	*	*	*	*	*	*ij	*	*	*	*
!	!	!LO:SIC:v:s=8b\J	!	!	!	!	!	!	!	!	!	!	!
8E\J	.	8cc#\J	8ee\J	8E\	lae-	8e\	lae-	8g#X\	lae-	8b\	lae-	.	.
8E\L	.	8.b\L	8.ee\L	8.E\	-ta-	8.e\	-ta-	8.g#\	-ta-	8.b\	-ta-	.	.
8E\	#	.	.	.	.	.	.	.	.	.	.	.	.
.	.	16b\Jk	16ee\Jk	16E\	-bi-	16e\	-bi-	16g#\	-bi-	16b\	-bi-	.	.
8E\	.	8b\L	8ee\L	8E\	-tur	8e\	-tur	8g#\	-tur	8b\	-tur	.	.
*	*	*	*	*	*	*	*	*	*	*	*ij	*	*
8BB\J	.	8b\J	8ff#\J	8BB/	lae-	8d#X\	lae-	8f#\	lae-	8b\	lae-	.	.
!LO:LB:g=original	!	!	!	!	!	!	!	!	!	!	!	!	!
=32	=32	=32	=32	=32	=32	=32	=32	=32	=32	=32	=32	=32	=32
!	!	!	!	!	!	!	!	!LO:SIC:v:s=8.g#	!	!	!	!	!
8.E\L	.	8.b\L	8.ee\L	8.E\	-ta-	8.e\	-ta-	8.g\	-ta-	8.b\	-ta-	.	.
!	!	!	!	!	!	!	!	!LO:SIC:v:s=16g#	!	!	!	!	!
16E\Jk	.	16b\Jk	16ee\Jk	16E\	-bi-	16e\	-bi-	16g\	-bi-	16b\	-bi-	.	.
!	!	!	!	!	!	!LO:LB:g=original	!	!	!	!	!	!	!
!	!	!	!	!	!	!	!	!LO:SIC:v:s=8g#	!	!	!	!	!
8E\L	.	8b\L	8ee\L	8E\	-tur	8e\	-tur	8g\	-tur	8b\	-tur	.	.
*	*	*	*	*	*	*	*	*	*	*	*Xij	*	*
!LO:SIC:v:s=8G#\J	!	!	!	!LO:SIC:v:s=8G#\	!	!	!	!	!	!	!	!	!
8G\J	.	8ee\J	8b\J	8G\	lae-	8e\	lae-	8e\	lae-	8b\	lae-	.	.
4A\	.	8cc#\L	8ee\L	8A\	-ta-	8e\	-ta-	8a\	-ta-	8cc#\	-ta-	.	.
.	.	8cc#\J	8ee\J	16A\	-bi-	16e\	-bi-	16a\	-bi-	16cc#\	-bi-	.	.
!	!	!	!	!	!	!	!	!	!	!	!LO:MO:mod=-tur	!	!
.	.	.	.	16A\	-tur	16e\	-tur	16a\	-tur	16cc#\	-t(ur)	.	.
*	*	*	*	*	*Xij	*	*Xij	*	*Xij	*	*	*	*
!	!	!	!	!LO:TX:a:t=P:problem=w źródle 'ius-tus' napisane bardzo niewyrażnie:mod=	!	!	!	!	!	!	!	!	!
!	!	!	!	!LO:TX:a:t=P:problem=mixed beam:mod=	!	!LO:TX:a:t=P:problem:# above:mod=	!	!	!	!	!LO:MO:mod=ius-	!	!
4B\	.	4ff#\	4bb\	8B\L	ius-	4d#X\	ius-	4f#\	ius-	4b\	jus-	.	.
.	.	.	.	8BB/J	.	.	.	.	.	.	.	.	.
=33	=33	=33	=33	=33	=33	=33	=33	=33	=33	=33	=33	=33	=33
!	!	!	!LO:SIC:v:s=4gg#\	!	!	!	!	!	!	!	!LO:MO:mod=-tus	!	!
4E\	.	4ee\	4gg\	4E\	-tus	4e\	-tus	4g#X\	-tus	4b\	-tuſ	.	.
4E\	.	4r	4r	4r	.	4r	.	4r	.	8r	.	.	.
.	.	.	.	.	.	.	.	.	.	8b\	lae-	.	.
4D#X/	.	2r	2r	2r	.	2r	.	2r	.	16b\LL	-ta-	.	.
.	.	.	.	.	.	.	.	.	.	16cc#\	.	.	.
.	.	.	.	.	.	.	.	.	.	16b\	.	.	.
.	.	.	.	.	.	.	.	.	.	16cc#\JJ	.	.	.
!	!	!	!	!	!	!	!	!	!	!LO:LB:g=original	!	!	!
4BB/	.	.	.	.	.	.	.	.	.	16b\LL	.	.	.
.	.	.	.	.	.	.	.	.	.	16cc#\	.	.	.
.	.	.	.	.	.	.	.	.	.	16b\	.	.	.
.	.	.	.	.	.	.	.	.	.	16cc#\JJ	.	.	.
=34	=34	=34	=34	=34	=34	=34	=34	=34	=34	=34	=34	=34	=34
4E\	.	8r	8r	8r	.	8r	.	8r	.	8.b\	.	.	.
!	!	!	!	!	!	!	!	!LO:TX:a:t=P:problem:# above:mod=	!	!	!	!	!
!	!	!	!	!LO:SIC:s=8E	!	!	!	!LO:SIC:s=8g#	!	!	!	!	!
.	.	8b/L	8ee\L	8E\L	lae-	8e\	lae-	8g#X\L	lae-	.	.	.	.
.	.	.	.	.	.	.	.	.	.	16b\	-bi-	.	.
!	!	!	!	!LO:TX:a:t=P:problem:# above:mod=	!	!	!	!LO:TX:a:t=P:problem:# above:mod=	!	!	!	!	!
!	!	!	!	!LO:SIC:s=8D#XL	!	!	!	!LO:SIC:s=8f#L	!	!	!	!	!
8D#X\L	.	8b/	8ff#\	8D#X\	-ta-	8B\L	-ta-	8f#X\	-ta-	8b\	-tur	.	.
8E\J	.	8b/J	8ee\J	8E\J	.	8e\J	.	8g#\J	.	8b\	lae-	.	.
!	!	!	!LO:LB:g=original	!LO:LB:g=original	!	!LO:SIC:v:s=8d#\L	!	!LO:TX:a:t=P:problem:# above:mod=	!	!	!	!	!
!	!	!	!	!	!	!	!	!LO:SIC:s=8f#L	!	!	!	!	!
8BB\L	.	8b/L	8ff#\L	8BB\L	.	8d\L	.	8f#X\L	.	16b\LL	-ta-	.	.
.	.	.	.	.	.	.	.	.	.	16cc#\	.	.	.
!	!	!LO:TX:b:t=P:problem:# below:mod=	!	!	!	!	!	!	!	!	!	!	!
8E\	.	8g#X/	8ee\	8E\	.	8e\	.	8g#\	.	16b\	.	.	.
.	.	.	.	.	.	.	.	.	.	16cc#\JJ	.	.	.
!	!	!	!	!LO:TX:a:t=P:problem:# above:mod=	!	!	!	!LO:TX:a:t=P:problem:# above:mod=	!	!	!	!	!
!	!	!	!	!	!	!	!	!LO:SIC:s=8f#	!	!	!	!	!
8D#X\	.	8b/	8ff#\	8D#X\	.	8B\	.	8f#X\	.	16b\LL	.	.	.
.	.	.	.	.	.	.	.	.	.	16cc#\	.	.	.
!	!	!LO:TX:b:t=P:problem:# below:mod=	!	!	!	!	!	!	!	!	!	!	!
8E\J	.	8g#X/J	8ee\J	8E\J	.	8e\J	.	8g#\J	.	16b\	.	.	.
.	.	.	.	.	.	.	.	.	.	16cc#\JJ	.	.	.
=35	=35	=35	=35	=35	=35	=35	=35	=35	=35	=35	=35	=35	=35
!	!	!	!	!	!	!	!	!LO:TX:a:t=P:problem=nuta 8.f# ma pustą główkę, również niepewna jest wysokość dźwieku zapisana w źródle:mod=	!	!	!	!	!
4BB/	.	4b/	4ff#\	8.BB/	.	8.d#X\	.	8.f#\	.	8.b\	.	0r	0r
.	.	.	.	16BB/	-bi-	16d#\	-bi-	16f#\	-bi-	16b\	-bi-	.	.
!	!	!	!	!	!	!	!	!LO:LB:g=original	!	!	!	!	!
!LO:TX:a:t=P:problem=mixed beam:mod=	!	!	!	!	!	!	!LO:MO:mod=-tur	!	!	!	!	!	!
8BB/L	.	8b/L	8ff#\L	8BB/	-tur	8d#\	-t(ur)	8f#\	-tur	8b\	-tur	.	.
*	*	*	*	*	*ij	*	*ij	*	*ij	*	*ij	*	*
8G#X\J	.	8b/J	8ee\J	8G#X\	lae-	8e\	lae-	8g#X\	lae-	8b\	lae-	.	.
8A\L	.	8cc#\L	8aa\L	8A\	-ta-	8c#\	-ta-	8e\	-ta-	8cc#\	-ta-	.	.
8E\J	.	8cc#\J	8gg#X\J	16E\	-bi-	16e\	-bi-	16e\	-bi-	16g#X\	-bi-	.	.
!	!	!	!	!	!	!	!LO:MO:mod=-tur	!	!	!	!	!	!
.	.	.	.	16E\	-tur	16e\	-t(ur)	16e\	-tur	16g#\	-tur	.	.
*	*	*	*	*	*Xij	*	*Xij	*	*Xij	*	*Xij	*	*
!LO:TX:a:t=P:problem=mixed beam:mod=	!	!	!	!LO:TX:a:t=P:problem=mixed beam:mod=	!	!LO:TX:a:t=P:problem:# above:mod=	!	!	!	!	!LO:MO:mod=ius-	!	!
8B\L	.	4dd#X\	4bb\	8B\L	ius-	4d#X\	ius-	4f#\	ius-	4f#/	jus-	.	.
8BB/J	#	.	.	8BB/J	.	.	.	.	.	.	.	.	.
=36	=36	=36	=36	=36	=36	=36	=36	=36	=36	=36	=36	=36	=36
4E\	.	4b/	4gg#X\	4E\	-tus	4e\	-tus	4g#X\	-tus	4e/	-tus	.	.
4A\	.	4r	4r	4r	.	4r	.	4r	.	8r	.	.	.
.	.	.	.	.	.	.	.	.	.	8ee\	lae-	.	.
4G#X\	6	2r	2r	2r	.	2r	.	2r	.	16ee\LL	-ta-	.	.
.	.	.	.	.	.	.	.	.	.	16ff#\	.	.	.
.	.	.	.	.	.	.	.	.	.	16ee\	.	.	.
.	.	.	.	.	.	.	.	.	.	16ff#\JJ	.	.	.
!	!	!	!	!	!	!	!	!	!	!LO:LB:g=original	!	!	!
4E\	#	.	.	.	.	.	.	.	.	16ee\LL	.	.	.
.	.	.	.	.	.	.	.	.	.	16ff#\	.	.	.
.	.	.	.	.	.	.	.	.	.	16ee\	.	.	.
.	.	.	.	.	.	.	.	.	.	16ff#\JJ	.	.	.
!LO:LB:g=original	!	!LO:LB:g=original	!	!	!	!LO:LB:g=original	!	!	!	!	!	!	!
=37	=37	=37	=37	=37	=37	=37	=37	=37	=37	=37	=37	=37	=37
4A\	.	8r	8rdd	8r	.	8r	.	8r	.	8.ee\	.	8r	8r
!	!	!	!	!LO:SIC:s=8A	!	!	!	!	!	!	!	!	!
.	.	8cc#\L	8aa\L	8A\L	lae-	8c#\	lae-	8a\	lae-	.	.	8ee\L	8aa\L
.	.	.	.	.	.	.	.	.	.	16ee\	-bi-	.	.
!LO:SIC:v:s=8G#\L	!	!	!	!LO:SIC:s=8G#L	!	!	!	!	!	!	!	!	!
8G\L	.	8ee\	8bb\	8G#X\	-ta-	8B\L	-ta-	8e\L	-ta-	8ee\	-tur	8ee\	8bb\
8A\J	.	8cc#\J	8aa\J	8A\J	.	8c#\J	.	8a\J	.	8ee\	lae-	8ee\J	8aa\J
!	!	!	!	!	!	!	!	!	!	!	!	!	!LO:LB:g=original
8E\L	.	8ee\L	8bb\L	8E\L	.	8B\L	.	8g#X\L	.	16ee\LL	-ta-	8.ee\L	8bb\L
.	.	.	.	.	.	.	.	.	.	16ff#\	.	.	.
!	!	!	!	!	!	!	!	!LO:SIC:s=8a	!	!	!	!	!
8A\	.	8cc#\	8aa\	8A\	.	8c#\	.	8a\J	.	16ee\	.	.	8aa\
.	.	.	.	.	.	.	.	.	.	16ff#\JJ	.	16ee\Jk	.
!LO:SIC:v:s=8G#\	!	!	!	!	!	!	!	!LO:SIC:s=8e	!	!	!	!	!
8G\	.	8ee\	8bb\	8G#\	.	8B\	.	8e\L	.	16ee\LL	.	8ee\L	8bb\
.	.	.	.	.	.	.	.	.	.	16ff#\	.	.	.
8A\J	.	8cc#\J	8aa\J	8A\J	.	8c#\J	.	8a\J	.	16ee\	.	8ee\J	8aa\J
.	.	.	.	.	.	.	.	.	.	16ff#\JJ	.	.	.
=38	=38	=38	=38	=38	=38	=38	=38	=38	=38	=38	=38	=38	=38
4.E\	.	4ee\	4bb\	8.E\	.	8.B\	.	8.g#X\	.	8.ee\	.	4ee\	4bb\
.	.	.	.	16E\	-bi-	16B\	-bi-	16g#\	-bi-	16ee\	-bi-	.	.
.	.	8ee\L	8bb\L	8E\	-tur	8B\	-tur	8g#\	-tur	8ee\	-tur	8ee\L	8bb\L
*	*	*	*	*	*ij	*	*ij	*	*ij	*	*ij	*	*
8C#/	.	8ee\J	8aa\J	8C#/	lae-	8c#\	lae-	8a\	lae-	8ee\	lae-	8ee\J	8aa\J
!	!	!	!	!LO:LB:g=original	!	!	!	!	!	!	!	!LO:LB:g=original	!
8D\L	.	8ff#\L	8dd\L	8.D\	-ta-	8A\	-ta-	8a\	-ta-	8ff#\	-ta-	8ff#\L	8aa\L
!LO:SIC:v:s=8A\J	!	!	!	!	!	!	!	!	!	!	!	!	!
8BB\J	.	8ee\J	8cc#\J	.	.	16c#\	-bi-	16a\	-bi-	16cc#\	-bi-	8ee\J	8aa\J
.	.	.	.	16AA/	-bi-	16d\	-tur	16a\	-tur	16cc#\	-tur	.	.
*	*	*	*	*	*	*	*Xij	*	*Xij	*	*Xij	*	*
!LO:TX:a:t=P:problem=mixed beam:mod=	!	!	!	!	!	!	!LO:MO:mod=ius-	!	!LO:MO:mod=ius-	!	!LO:MO:mod=ius-	!	!LO:TX:a:t=P:problem:# above:mod=
8E\L	.	4ee\	4b/	8AA/	-tur	4e\	iu-	4g#X\	iu-	4b\	jus-	4ee\	4gg#X\
*	*	*	*	*	*Xij	*	*	*	*	*	*	*	*
!	!	!	!	!	!LO:MO:mod=ius-	!	!	!	!	!	!	!	!
8EE/J	.	.	.	8E\	iu-	.	.	.	.	.	.	.	.
!	!	!	!	!	!	!	!	!LO:LB:g=original	!	!	!	!	!
=39	=39	=39	=39	=39	=39	=39	=39	=39	=39	=39	=39	=39	=39
!	!	!	!	!	!LO:MO:mod=-tus	!	!LO:MO:mod=-tus	!	!LO:MO:mod=-tus	!	!	!	!
4AA/	.	4ee\	4cc#\	4AA/	-stus	4c#\	-stus	4a\	-stus	4cc#\	-tus	4ee\	4aa\
8r	.	8r	8r	4r	.	4r	.	4re	.	4r	.	8r	8rdd
8C#/	.	8cc#\	8a/	.	.	.	.	.	.	.	.	8ee\	8aa\
8D/L	.	8dd\L	8a/L	2r	.	2r	.	2re	.	2r	.	8ff#\L	8ff#\L
8AA/J	.	8cc#\J	8a/J	.	.	.	.	.	.	.	.	8ee\J	8aa\
4E\	.	4b/	4g#X/	.	.	.	.	.	.	.	.	4ee\	8aa\
!	!	!	!	!	!	!	!	!	!	!	!	!	!LO:SIC:v:s=8gg#\J
.	.	.	.	.	.	.	.	.	.	.	.	.	8gg\J
=40	=40	=40	=40	=40-	=40-	=40	=40	=40	=40	=40-	=40-	=40	=40
!LO:TX:b:Bi:t=Tenor:problem=tekst wyblakły:mod=	!	!LO:TX:b:Bi:t=Tenor:problem=tekst wyblakły:mod=	!	!	!	!LO:MO:mod=!LO&colon;TX&colon;a&colon;i&colon;t=Solo	!	!	!	!	!	!	!
!	!	!	!	!	!	!LO:TX:b:i:t=solo	!	!	!	!	!	!	!
4AA/	.	4cc#\	4a/	00r	.	8r	.	00r	.	00r	.	4ee\	4aa\
.	.	.	.	.	.	8A\	et	.	.	.	.	.	.
4F#\	6	4r	4r	.	.	8A\	su-	.	.	.	.	4r	4r
.	.	.	.	.	.	8A\	-per	.	.	.	.	.	.
!	!	!	!	!	!	!	!LO:MO:mod=sa-	!	!	!	!	!	!
4D\	.	2r	2r	.	.	8B\	ſa-	.	.	.	.	2r	2r
.	.	.	.	.	.	16B\LL	-lu-	.	.	.	.	.	.
.	.	.	.	.	.	16c#\JJ	.	.	.	.	.	.	.
4E\	.	.	.	.	.	8d\	-ta-	.	.	.	.	.	.
.	.	.	.	.	.	8B\	-re	.	.	.	.	.	.
!	!	!LO:MO:mod==41	!LO:LB:g=original	!	!	!LO:LB:g=original	!	!	!	!	!	!LO:MO:mod==41	!
=41	=41	=41-	=41	=41	=41	=41	=41	=41	=41	=41	=41	=41-	=41
!	!	!	!LO:TX:b:Bi:t=Tenor U U:problem=tekst wyblakły:mod=	!	!	!	!	!	!	!	!	!	!
4A\	.	0r	1r	.	.	8c#\	tu-	.	.	.	.	00r	00r
.	.	.	.	.	.	8A\	-um	.	.	.	.	.	.
4F#\	.	.	.	.	.	8d\	e-	.	.	.	.	.	.
.	.	.	.	.	.	8d\	-xul-	.	.	.	.	.	.
4G\	.	.	.	.	.	8d\L	-ta-	.	.	.	.	.	.
.	.	.	.	.	.	16e\L	.	.	.	.	.	.	.
.	.	.	.	.	.	16d\JJ	.	.	.	.	.	.	.
4A\	.	.	.	.	.	8c#\L	.	.	.	.	.	.	.
.	.	.	.	.	.	16B\L	.	.	.	.	.	.	.
.	.	.	.	.	.	16c#\JJ	.	.	.	.	.	.	.
=42	=42	=42	=42	=42	=42	=42	=42	=42	=42	=42	=42	=42	=42
4D/	.	.	8r	.	.	8d\	.	.	.	.	.	.	.
.	.	.	8dd\L	.	.	8d\	-bit	.	.	.	.	.	.
4G\	.	.	8dd\	.	.	4r	.	.	.	.	.	.	.
.	.	.	8dd\J	.	.	.	.	.	.	.	.	.	.
4E\	.	.	8ee\L	.	.	2rG	.	.	.	.	.	.	.
.	.	.	16ee\L	.	.	.	.	.	.	.	.	.	.
.	.	.	16ff#\JJ	.	.	.	.	.	.	.	.	.	.
4A\	.	.	8gg\L	.	.	.	.	.	.	.	.	.	.
.	.	.	8ee\J	.	.	.	.	.	.	.	.	.	.
!LO:LB:g=original	!	!	!	!	!	!	!	!	!	!	!	!	!
=43	=43	=43	=43	=43	=43	=43	=43	=43	=43	=43	=43	=43	=43
4D/	.	8r	8ff#\L	.	.	1r	.	.	.	.	.	.	.
.	.	8a/L	8dd\J	.	.	.	.	.	.	.	.	.	.
4C#/	.	8a/	8aa\L	.	.	.	.	.	.	.	.	.	.
.	.	8a/J	8aa\J	.	.	.	.	.	.	.	.	.	.
4BB/	.	8b\L	8aa\L	.	.	.	.	.	.	.	.	.	.
.	.	16b\L	16bb\L	.	.	.	.	.	.	.	.	.	.
.	.	16cc#\JJ	16aa\JJ	.	.	.	.	.	.	.	.	.	.
!	!	!	!LO:TX:a:t=P:problem:# above:mod=	!	!	!	!	!	!	!	!	!	!
4E\	.	8dd\L	8gg#X\L	.	.	.	.	.	.	.	.	.	.
!	!	!LO:SIC:v:s=8b\J	!	!	!	!	!	!	!	!	!	!	!
.	.	8cc#\J	16ff#\L	.	.	.	.	.	.	.	.	.	.
.	.	.	16gg#\JJ	.	.	.	.	.	.	.	.	.	.
=44	=44	=44	=44	=44	=44	=44-	=44-	=44	=44	=44	=44	=44	=44
4A\	.	8cc#\L	8aa\L	1r	.	8r	.	00r	.	00r	.	.	.
*	*	*	*	*	*	*	*ij	*	*	*	*	*	*
.	.	8cc#\J	8aa\J	.	.	8A\	et	.	.	.	.	.	.
4F#\	.	4r	4rdd	.	.	8A\	su-	.	.	.	.	.	.
.	.	.	.	.	.	8A\	-per	.	.	.	.	.	.
!	!	!LO:LB:g=original	!	!	!	!	!LO:MO:mod=sa-	!	!	!	!	!	!
4D\	.	2r	2rdd	.	.	8B\	ſa-	.	.	.	.	.	.
.	.	.	.	.	.	16B\LL	-lu-	.	.	.	.	.	.
.	.	.	.	.	.	16c#\JJ	.	.	.	.	.	.	.
4E\	.	.	.	.	.	8d\	-ta-	.	.	.	.	.	.
.	.	.	.	.	.	8B\	-re	.	.	.	.	.	.
=45	=45	=45	=45-	=45	=45	=45	=45	=45	=45	=45	=45	=45	=45
!LO:TX:a:t=P:problem=mixed beam:mod=	!	!	!	!	!	!	!	!	!	!	!	!	!
8AA/L	.	0r	0r	8r	.	8c#\	tu-	.	.	.	.	00r	00r
8D\J	.	.	.	8D\	et	8A\	-um	.	.	.	.	.	.
!	!	!	!	!	!LO:MO:mod=su-	!	!	!	!	!	!	!	!
8G\L	.	.	.	8D\	ſu-	8d\	e-	.	.	.	.	.	.
8D\J	.	.	.	8D\	-per	8d\	-xul-	.	.	.	.	.	.
!	!	!	!	!	!LO:MO:mod=sa-	!LO:LB:g=original	!	!	!	!	!	!	!
8G\L	.	.	.	8E\	ſa-	8d\L	-ta-	.	.	.	.	.	.
8E\J	.	.	.	16E\LL	-lu-	16e\L	.	.	.	.	.	.	.
.	.	.	.	16F#\JJ	.	16d\JJ	.	.	.	.	.	.	.
!LO:TX:a:t=P:problem=mixed beam:mod=	!	!	!	!	!	!	!	!	!	!	!	!	!
8A\L	.	.	.	8G\	-ta-	8c#\L	.	.	.	.	.	.	.
8AA/J	.	.	.	8E\	-re	16B\L	.	.	.	.	.	.	.
.	.	.	.	.	.	16c#\JJ	.	.	.	.	.	.	.
=46	=46	=46	=46	=46	=46	=46	=46	=46	=46	=46	=46	=46	=46
4D/	.	.	.	8F#\	tu-	8d\	.	.	.	.	.	.	.
.	.	.	.	8D\	-um	8d\	-bit	.	.	.	.	.	.
*	*	*	*	*	*	*	*Xij	*	*	*	*	*	*
4AA/	.	.	.	8A\	e-	8c#\	e-	.	.	.	.	.	.
.	.	.	.	8A\	-xul-	8c#\	-xul-	.	.	.	.	.	.
8E\L	.	.	.	8A\L	-ta-	8c#\L	-ta-	.	.	.	.	.	.
8D\J	.	.	.	16B\L	.	16d\L	.	.	.	.	.	.	.
.	.	.	.	16A\JJ	.	16c#\JJ	.	.	.	.	.	.	.
!	!	!	!	!LO:TX:a:t=P:problem:# above:mod=	!	!	!	!	!	!	!	!	!
4E\	.	.	.	8G#X\L	.	8B\L	.	.	.	.	.	.	.
.	.	.	.	16F#\L	.	16A\L	.	.	.	.	.	.	.
.	.	.	.	16G#\JJ	.	16B\JJ	.	.	.	.	.	.	.
!	!	!	!	!LO:LB:g=original	!	!	!	!	!	!	!	!	!
=47	=47	=47-	=47	=47	=47	=47	=47	=47	=47	=47	=47	=47	=47
4AA/	.	4r	4rdd	8A\	.	8c#\	.	.	.	.	.	.	.
.	.	.	.	8A\	-bit	8c#\	-bit	.	.	.	.	.	.
4C#/	.	8cc#\L	8aa\L	4rF	.	4r	.	.	.	.	.	.	.
.	.	8cc#\J	8aa\J	.	.	.	.	.	.	.	.	.	.
8F#\L	.	8cc#\L	8aa\L	2rF	.	2r	.	.	.	.	.	.	.
8E\J	.	16dd\L	16bb\L	.	.	.	.	.	.	.	.	.	.
.	.	16cc#\JJ	16aa\JJ	.	.	.	.	.	.	.	.	.	.
4E\	.	8b/L	8gg#X\L	.	.	.	.	.	.	.	.	.	.
.	.	16a/L	16ff#\L	.	.	.	.	.	.	.	.	.	.
.	.	16b/JJ	16gg#\JJ	.	.	.	.	.	.	.	.	.	.
=48	=48	=48	=48	=48	=48	=48	=48	=48	=48	=48	=48	=48	=48
!	!	!	!LO:TX:a:t=P:problem=mixed beam:mod=	!	!	!	!	!	!	!	!	!	!
4AA/	.	8cc#\L	8aa\L	4r	.	2r	.	00r	.	00r	.	.	.
.	.	8cc#\J	8a/J	.	.	.	.	.	.	.	.	.	.
4C#/	.	4r	4r	16A\LL	e-	.	.	.	.	.	.	.	.
.	.	.	.	16B\JJ	.	.	.	.	.	.	.	.	.
.	.	.	.	16A\LL	-xul-	.	.	.	.	.	.	.	.
.	.	.	.	16G\JJ	.	.	.	.	.	.	.	.	.
8D/L	.	2r	2r	8F#\L	-ta-	16d\LL	e-	.	.	.	.	.	.
.	.	.	.	.	.	16e\JJ	.	.	.	.	.	.	.
8BB/J	.	.	.	16B\L	.	16d\LL	-xul-	.	.	.	.	.	.
.	.	.	.	16A\JJ	.	16c#\JJ	.	.	.	.	.	.	.
!	!	!	!	!LO:TX:a:t=P:problem:# above:mod=	!	!LO:SIC:s=8BL	!	!	!	!	!	!	!
8E\L	.	.	.	8G#X\L	.	8B\	-ta-	.	.	.	.	.	.
!	!	!	!	!	!	!LO:SIC:s=16eL	!	!	!	!	!	!	!
8C#\J	.	.	.	16c#\L	.	16e\LL	.	.	.	.	.	.	.
.	.	.	.	16B\JJ	.	16d\JJ	.	.	.	.	.	.	.
!LO:LB:g=original	!	!	!	!	!	!	!	!	!	!	!	!	!
=49	=49	=49-	=49-	=49	=49	=49	=49	=49	=49	=49	=49	=49	=49
4F#\	.	0r	0r	8A\	.	8c#\	.	.	.	.	.	0r	0r
.	.	.	.	8A\	-bit	8c#\	-bit	.	.	.	.	.	.
!	!	!	!	!LO:TX:a:t=P:problem:# above:mod=	!	!	!	!	!	!	!	!	!
8G#X\L	.	.	.	8G#X\	ve-	8B\	ve-	.	.	.	.	.	.
8E\J	.	.	.	8E\	-he-	8e\	-he-	.	.	.	.	.	.
!	!	!	!	!	!	!LO:LB:g=original	!	!	!	!	!	!	!
!	!	!	!	!LO:TX:a:t=P:problem=mixed beam:mod=	!	!	!	!	!	!	!	!	!
4BB/	.	.	.	8B\L	-men-	8e\L	-men-	.	.	.	.	.	.
!	!	!	!	!	!	!LO:TX:a:t=P:problem:# above:mod=	!	!	!	!	!	!	!
.	.	.	.	8BB/J	.	8d#X\J	.	.	.	.	.	.	.
4E\	.	.	.	4E\	-ter	4e\	-ter	.	.	.	.	.	.
=50	=50	=50	=50	=50	=50	=50	=50	=50	=50	=50	=50	=50	=50
8A\L	.	.	.	8A\	e-	8c#\	e-	.	.	.	.	.	.
!	!	!	!	!LO:TX:a:t=P:problem:# above:mod=	!	!	!	!	!	!	!	!	!
8G#X\	6	.	.	8G#X\	-xul-	8B\	-xul-	.	.	.	.	.	.
8A\	.	.	.	8A\	-ta-	8c#\	-ta-	.	.	.	.	.	.
8E\J	.	.	.	8E\	-bit	8B\	-bit	.	.	.	.	.	.
*	*	*	*	*	*ij	*	*ij	*	*	*	*	*	*
8A\L	.	.	.	8A\	e-	8c#\	e-	.	.	.	.	.	.
!	!	!	!	!LO:TX:a:t=P:problem:# above:mod=	!	!	!	!	!	!	!	!	!
8G#X\	6	.	.	8G#X\	-xul-	8B\	-xul-	.	.	.	.	.	.
!	!	!	!	!LO:LB:g=original	!	!	!	!	!	!	!	!	!
8A\	.	.	.	8A\	-ta-	8c#\	-ta-	.	.	.	.	.	.
8E\J	.	.	.	8E\	-bit	8B\	-bit	.	.	.	.	.	.
*	*	*	*	*	*	*	*Xij	*	*	*	*	*	*
!	!	!	!LO:LB:g=original	!	!	!	!	!	!	!	!	!	!
=51	=51	=51-	=51	=51	=51	=51	=51	=51	=51	=51	=51	=51	=51
8C#/L	6	2r	2rg	8C#\	e-	8A\	Ve-	.	.	.	.	2r	2r
8D/J	6	.	.	8D\	-xul-	8d\	-he-	.	.	.	.	.	.
4E\	4	.	.	4E\	-ta-	4B\	-men-	.	.	.	.	.	.
.	3	.	.	.	.	.	.	.	.	.	.	.	.
4AA/	.	4rdd	4r	4AA/	-bit	4c#\	-ter	.	.	.	.	4r	4r
*	*	*	*	*	*Xij	*	*	*	*	*	*	*	*
4F#\	.	8ff#\L	8dd\L	4r	.	4r	.	.	.	.	.	8ff#\L	8aa\L
.	.	8ff#\J	8dd\J	.	.	.	.	.	.	.	.	8ff#\J	8aa\J
=52	=52	=52	=52	=52	=52	=52	=52	=52	=52	=52	=52	=52	=52
8B\L	.	8ff#\L	8dd\L	00r	.	0r	.	1r	.	0r	.	8dd\L	8ff#\L
8G\J	6 5	16gg\L	16ee\L	.	.	.	.	.	.	.	.	16ee\L	16gg\L
.	.	16ff#\JJ	16dd\JJ	.	.	.	.	.	.	.	.	16dd\JJ	16ff#\JJ
4A\	4 x	8ee\L	8cc#\L	.	.	.	.	.	.	.	.	8a/L	8ee\L
.	3 x	16dd\L	16b\L	.	.	.	.	.	.	.	.	8a/J	16dd\L
.	.	16ee\JJ	16cc#\JJ	.	.	.	.	.	.	.	.	.	16ee\JJ
!	!	!	!LO:TX:a:t=P:problem=mixed beam:mod=	!	!	!	!	!	!	!	!	!LO:TX:a:t=P:problem=mixed beam:mod=	!
4D/	.	8ff#\L	8dd\L	.	.	.	.	.	.	.	.	8f#/L	16dd\LL
.	.	.	.	.	.	.	.	.	.	.	.	.	16ee\
.	.	8dd\J	8f#/J	.	.	.	.	.	.	.	.	8dd\J	16ff#\
.	.	.	.	.	.	.	.	.	.	.	.	.	16gg\JJ
4AA/	4 x	8cc#\L	4e/	.	.	.	.	.	.	.	.	4ee\	4aa\
.	3 x	16b\L	.	.	.	.	.	.	.	.	.	.	.
.	.	16cc#\JJ	.	.	.	.	.	.	.	.	.	.	.
!	!	!	!	!	!	!	!	!	!	!	!	!	!LO:LB:g=original
=53	=53	=53	=53	=53	=53	=53	=53	=53	=53	=53	=53	=53	=53
!	!	!	!LO:TX:a:t=P:problem=mixed beam:mod=	!	!	!	!	!	!	!	!	!	!
8D/	.	8dd\L	8f#/L	.	.	.	.	8r	.	.	.	4dd\	4ff#\
*clefC3	*	*	*	*	*	*	*	*	*	*	*	*	*
*k[f#c#]	*	*	*	*	*	*	*	*	*	*	*	*	*
8d\L	.	8dd\	8ff#\	.	.	.	.	8d\	et	.	.	.	.
!	!	!	!	!	!	!	!	!	!LO:MO:mod=su-	!	!	!	!
8d\	.	8dd\	8ff#\	.	.	.	.	8d\	ſu-	.	.	4r	4r
8d\J	.	8dd\J	8ff#\J	.	.	.	.	8d\	per	.	.	.	.
!	!	!LO:LB:g=original	!	!	!	!	!	!	!LO:MO:mod=sa-	!	!	!	!
8e\L	.	8dd\L	8gg\L	.	.	.	.	8e\	ſa-	.	.	2rg	2r
8e\	7	8dd\	16gg\L	.	.	.	.	16e\LL	-lu-	.	.	.	.
.	.	.	16aa\JJ	.	.	.	.	16f#\JJ	.	.	.	.	.
8e\	6	8cc#\	8bb\L	.	.	.	.	8g\	-ta-	.	.	.	.
8e\J	.	8cc#\J	8gg\J	.	.	.	.	8e\	-re	.	.	.	.
!LO:PB:g=original	!	!	!	!	!	!	!	!	!	!LO:LB:g=original	!	!	!
=54	=54	=54	=54	=54	=54	=54	=54	=54	=54	=54	=54	=54-	=54-
!	!	!LO:TX:a:t=P:problem=mixed beam:mod=	!LO:TX:b:B:t=A:problem=tekst wyblakły:mod=	!	!	!	!	!	!	!LO:N:vis=16	!	!	!
8f#\L	.	8dd\L	8aa\L	.	.	1r	.	8f#\	tu-	8r	.	0r	0r
8d\J	.	8a/	8ff#\J	.	.	.	.	8d\	-um	8a\	et	.	.
!	!	!	!	!	!	!	!	!	!	!	!LO:MO:mod=su-	!	!
8a\L	.	8a/	4ee\	.	.	.	.	8a\	e-	8a\	ſuu-	.	.
8a\J	.	8a/J	.	.	.	.	.	8a\	-xul-	8a\	per	.	.
!	!	!	!	!	!	!	!	!	!	!	!LO:MO:mod=sa-	!	!
4a\	.	8b\L	4dd\	.	.	.	.	8a\L	-ta-	8b\	ſa-	.	.
.	.	16b\L	.	.	.	.	.	16b\L	.	16b\LL	-lu-	.	.
.	.	16cc#\JJ	.	.	.	.	.	16a\JJ	.	16cc#\JJ	.	.	.
4g#X\	.	8dd\L	8b\L	.	.	.	.	8g#X\L	.	8dd\	-ta-	.	.
.	.	8b\J	8ee\J	.	.	.	.	16f#\L	.	8b\	-re	.	.
.	.	.	.	.	.	.	.	16g#\JJ	.	.	.	.	.
=55	=55	=55	=55	=55	=55	=55	=55	=55	=55	=55	=55	=55	=55
!	!	!	!LO:TX:a:t=P:problem=mixed beam:mod=	!	!	!	!	!	!	!	!	!	!
8a\L	.	8cc#\L	8a/L	.	.	8r	.	8a\	.	8cc#\	tu-	.	.
*clefC4	*	*	*	*	*	*	*	*	*	*	*	*	*
*k[f#c#]	*	*	*	*	*	*	*	*	*	*	*	*	*
!	!	!	!	!	!	!	!	!	!	!	!LO:MO:mod=-um	!	!
8A\	.	8a\	8cc#\	.	.	8A\	et	8a\	-bit	8a\	-u(m)	.	.
!	!	!	!	!	!	!	!	!LO:LB:g=original	!	!	!	!	!
*	*	*	*	*	*	*	*	*	*ij	*	*	*	*
!	!	!	!	!	!	!	!LO:MO:mod=su-	!	!	!	!LO:MO:mod=su-	!	!
8A\	.	8cc#\	8ee\	.	.	8A\	ſu-	8e\	e-	8cc#\	ſup-	.	.
!	!	!	!	!	!	!	!	!	!	!	!LO:MO:mod=-per	!	!
8A\J	.	8cc#\J	8ee\J	.	.	8A\	per	8e\	-xul-	8cc#\	-er	.	.
!	!	!	!	!	!	!	!LO:MO:mod=sa-	!	!	!	!LO:MO:mod=sa-	!	!
8B\L	.	8dd\L	4.dd\	.	.	8B\	ſa-	8a\	-ta-	8dd\	ſa-	.	.
8B\	7	16dd\L	.	.	.	16B\LL	-lu-	8a\	-bit	(>16dd\LL	-lu-	.	.
.	.	16ee\JJ	.	.	.	16c#\JJ	.	.	.	16ee\JJ)	.	.	.
*	*	*	*	*	*	*	*	*	*Xij	*	*	*	*
8B\	6	8ff#\L	.	.	.	8d\	-ta-	8g#X\	e-	8ff#\	-ta-	.	.
8B\J	.	8b\J	16ee\LL	.	.	8B\	-re	8g#\	-xul-	8b\	-re	.	.
.	.	.	16dd\JJ	.	.	.	.	.	.	.	.	.	.
!	!	!	!	!	!	!LO:LB:g=original	!	!	!	!	!	!	!
=56	=56	=56	=56	=56-	=56-	=56	=56	=56	=56	=56	=56	=56	=56-
8c#\L	.	8ee\L	8cc#\L	8r	.	8c#\	tu-	8a\	-ta-	8ee\	tu-	8r	8rdd
*clefF4	*	*	*	*	*	*	*	*	*	*	*	*	*
*k[f#c#]	*	*	*	*	*	*	*	*	*	*	*	*	*
!	!	!LO:SIC:v:s=8ff#\	!	!	!	!	!	!	!	!	!LO:MO:mod=-um	!LO:SIC:s=8ff#L	!
8D\	.	8ee\	8aa\	8D\	et	8A\	-um	8a\	-bit	8a\	-u(m)	8ff#\	8aa\L
!	!	!	!	!	!	!	!	!	!	!	!	!LO:LB:g=original	!
*	*	*	*	*	*	*	*	*	*ij	*	*	*	*
!	!	!	!	!	!LO:MO:mod=su-	!	!	!	!	!	!	!LO:SIC:s=8ff#	!
8D\	.	8ff#\	8aa\	8D\	ſu-	8d\	e-	8a\	e-	8dd\	e-	8ff#\L	8aa\
8D\J	.	8ff#\J	8aa\J	8D\	per	8d\	-xul-	8f#\	-xul-	8dd\	-xul-	8ff#\J	8aa\J
!	!	!	!LO:LB:g=original	!	!	!	!	!	!	!	!	!	!
!	!	!	!	!LO:TX:a:t=P:problem=w źródle sylaba nieczytelna:mod=	!LO:MO:mod=sa-	!	!	!	!	!	!	!	!
8E\L	.	8gg\L	8gg\L	8E\	ſa-	8d\L	-ta-	8b\	-ta-	8b\L	-ta-	8ee\L	4gg\
8E\	7	16gg\L	8gg\	16E\LL	-lu-	16e\L	.	8g\	-bit	16cc#\L	.	8ee\	.
.	.	16aa\JJ	.	16F#\JJ	.	16d\JJ	.	.	.	16dd\JJ	.	.	.
!	!	!	!	!	!	!	!	!	!	!LO:TX:a:t=P:problem=mixed beam:mod=	!	!	!
8E\	6	8bb\L	8gg\	8G\	-ta-	8c#\L	.	8e\	e-	8ee\L	.	8ee\	8gg\L
8E\J	.	8gg\J	8gg\J	8E\	-re	16B\L	.	8e\	-xul-	8e/J	.	8ee\J	8gg\J
.	.	.	.	.	.	16c#\JJ	.	.	.	.	.	.	.
!	!	!	!	!	!	!	!	!	!	!LO:LB:g=original	!	!	!
=57	=57	=57	=57	=57	=57	=57	=57	=57	=57	=57	=57	=57	=57
!	!	!LO:TX:a:t=P:problem=mixed beam:mod=	!LO:TX:a:t=P:problem=mixed beam:mod=	!	!	!	!	!	!	!	!	!	!
8F#\L	.	8aa\L	8ff#\L	8F#\	tu-	8d\	.	8a\	-ta-	8a\	.	8a/L	8ff#\L
8D\J	.	8a/J	8a/	8D\	-um	8d\	-bit	8a\	-bit	8a\	-bit	8a/J	8ff#\J
*	*	*	*	*	*	*	*ij	*	*Xij	*	*	*	*
!	!	!	!	!	!	!	!	!	!	!	!LO:MO:mod=su-	!	!
4A\	.	8cc#\L	8a/	8A\	e-	8c#\	e-	4re	.	8a\	ſup-	4r	4r
!	!	!	!	!	!	!	!	!	!	!	!LO:MO:mod=-per	!	!
.	.	8cc#\J	8a/J	8A\	-xul-	8c#\	-xul-	.	.	8a\	-er	.	.
!	!	!	!	!	!	!	!	!	!	!	!LO:MO:mod=sa-	!	!
4A\	.	4dd\	8b\L	8A\L	-ta-	8B\	-ta-	2re	.	8b\	ſa-	2rg	2r
.	.	.	16b\L	16B\L	.	8B\	-bit	.	.	(>16b\LL	-lu-	.	.
.	.	.	16cc#\JJ	16A\JJ	.	.	.	.	.	16cc#\JJ)	.	.	.
!	!	!	!	!LO:TX:a:t=P:problem:# above:mod=	!	!	!	!	!	!	!	!	!
4G#X\	.	4b/	8dd\L	8G#X\L	.	8B\	e-	.	.	8dd\	-ta-	.	.
.	.	.	8b\J	16F#\L	.	8B\	-xul-	.	.	8b\	-re	.	.
.	.	.	.	16G#\JJ	.	.	.	.	.	.	.	.	.
!	!	!LO:LB:g=original	!	!LO:LB:g=original	!	!	!	!	!	!	!	!	!
=58	=58	=58	=58	=58	=58	=58	=58	=58	=58	=58	=58	=58	=58
4A\	.	4ee\	8cc#\L	8A\	.	8A/	-ta-	8r	.	8cc#\	tu-	4r	4r
.	.	.	8cc#\	8A\	-bit	8A/	-bit	8A/	et	8cc#\	-um	.	.
*	*	*	*	*	*	*	*Xij	*	*	*	*	*	*
!	!	!	!	!	!LO:MO:mod=ve-	!	!LO:MO:mod=ve-	!	!LO:MO:mod=su-	!	!	!	!
4F#\	6	8ff#\L	8dd\	8F#\	Ve-	8d\	Ve-	8d\	ſup-	8dd\	e-	8ff#\L	8aa\L
!	!	!	!	!	!	!	!	!	!LO:MO:mod=-per	!	!	!	!
.	.	8ff#\J	8dd\J	8F#\	-he-	8d\	-he-	8d\	-er	8dd\	-xul-	8ff#\J	8ff#\J
!LO:LB:g=original	!	!	!	!	!	!	!	!	!LO:MO:mod=sa-	!	!	!	!
8G\L	.	8bb\L	8dd\L	8G\L	-men-	4B\	-men-	8e\	ſa-	8dd\L	-ta-	8dd\L	8bb\L
16G\L	.	8bb\J	16ee\L	16G\L	.	.	.	16e\LL	-lu-	16ee\L	.	8dd\J	8bb\J
16F#\JJ	.	.	16dd\JJ	16F#\JJ	.	.	.	16f#\JJ	.	16dd\JJ	.	.	.
8E\L	.	8gg\L	8cc#\L	8E\L	.	4c#\	-ter	8g\	-ta-	8cc#\L	.	8ee\L	8gg\L
8A\J	.	8aa\J	16b\L	8A\J	.	.	.	8e\	-re	16b\L	.	8ee\J	8aa\J
.	.	.	16cc#\JJ	.	.	.	.	.	.	16cc#\JJ	.	.	.
!	!	!	!	!	!	!	!	!LO:LB:g=original	!	!	!	!	!
=59	=59	=59	=59	=59	=59	=59	=59	=59	=59	=59	=59	=59	=59
8F#\L	.	8dd\L	8dd\L	8F#\	.	4r	.	8f#\	tu-	8dd\	.	8dd\L	8dd\L
!	!	!LO:SIC:v:s=8ff#\	!	!	!	!	!	!	!	!	!	!	!
8D\J	.	8gg\	8dd\	8D\	-ter	.	.	8d\	-um	8dd\	-bit	8ff#\J	8dd\J
*clefC4	*	*	*	*	*	*	*	*	*	*	*	*	*
*k[f#c#]	*	*	*	*	*	*	*	*	*	*	*	*	*
*	*	*	*	*	*	*	*	*	*	*	*ij	*	*
4c#\	.	8ee\	8ee\	4r	.	8c#\	e-	8a\	e-	8ee\	e-	4ee\	4a/
!	!	!LO:SIC:s=8aaJ	!	!	!	!	!	!	!	!	!	!	!
.	.	8aa\	8cc#\J	.	.	8c#\	-xul-	8a\	-xul-	8cc#\	-xul-	.	.
!	!	!LO:SIC:s=8ddL	!	!	!	!LO:LB:g=original	!	!LO:SIC:s=8aL	!	!	!	!	!
8d\L	.	8dd\	8ff#\L	2r	.	8d\L	-ta-	8a\	-ta-	8ff#\	-ta-	4dd\	4f#/
!	!	!	!	!	!	!	!	!LO:SIC:s=16bL	!	!	!	!	!
16d\L	.	8dd\J	8ff#\J	.	.	16d\L	.	16b\LL	.	8ff#\	-bit	.	.
16c#\JJ	.	.	.	.	.	16c#\JJ	.	16a\JJ	.	.	.	.	.
*	*	*	*	*	*	*	*	*	*	*	*Xij	*	*
!	!	!	!	!	!	!	!	!LO:SIC:s=8g#L	!	!	!	!	!
8B\L	.	4r	8dd\L	.	.	8B\L	.	8g#X\	.	8dd\	ve-	4r	4r
!	!	!	!	!	!	!	!	!LO:SIC:s=16f#L	!	!	!	!	!
8e\J	.	.	8b\J	.	.	8e\J	.	(>16f#\LL	.	8b\	-he-	.	.
!	!	!	!	!	!	!	!	!LO:SIC:s=16g#JJ	!	!	!	!	!
.	.	.	.	.	.	.	.	16g#\JJ)	.	.	.	.	.
!	!	!	!	!	!	!	!	!	!	!LO:LB:g=original	!	!	!
=60	=60	=60	=60	=60	=60	=60	=60	=60	=60	=60	=60	=60	=60
!LO:TX:a:t=P:problem=mixed beam:mod=	!	!	!LO:TX:a:t=P:problem=mixed beam:mod=	!	!	!	!	!	!	!	!	!	!
8c#\L	.	8r	8a/L	8r	.	8c#\	.	8a\	.	4cc#\	-men-	8r	8r
*clefF4	*	*	*	*	*	*	*	*	*	*	*	*	*
*k[f#c#]	*	*	*	*	*	*	*	*	*	*	*	*	*
!LO:TX:b:Bi:t=Tutti:problem=tekst wyblakły:mod=	!	!	!	!	!LO:MO:mod=et	!	!	!	!	!	!	!	!
8AA/	.	8ee\L	8aa\	8AA/	Et	8A\	-bit	8a\	-bit	.	.	8ee\L	8aa\L
*	*	*	*	*	*	*	*ij	*	*ij	*	*	*	*
!	!	!	!	!	!LO:MO:mod=su-	!	!	!	!	!	!	!	!
8AA/	.	8ee\	8aa\	8AA/	ſup-	8A\	e-	8a\	e-	4cc#\	-ter	8ee\	8aa\
!	!	!	!	!	!LO:MO:mod=-per	!	!	!	!	!	!	!	!
8AA/J	.	8ee\J	8aa\J	8AA/	-er	8A\	-xul-	8f#\	-xul-	.	.	8ee\J	8aa\J
!	!	!	!	!LO:TX:a:t=P:problem=w źródle na słowie "salutare" tekst zamazany:mod=	!LO:MO:mod=sa-	!	!	!	!	!	!	!	!
8BB/L	.	8dd\L	8aa\L	8BB/	ſa-	8d\	-ta-	8b\	-ta-	2r	.	8dd\L	8aa\L
8BB/	7	8dd\	8aa\	16BB/LL	-lu-	8d\	-bit	8b\	-bit	.	.	8dd\	8aa\
.	.	.	.	16C#/JJ	.	.	.	.	.	.	.	.	.
!	!	!	!LO:SIC:v:s=8gg#\	!	!	!	!	!	!	!	!	!	!LO:SIC:v:s=8ff#\
8BB/	6	8dd\	8gg\	8D/	-ta-	8B\	e-	8g#X\	e-	.	.	8dd\	8gg\
!	!	!	!LO:TX:a:t=P:problem:# above:mod=	!	!	!	!	!	!	!	!	!	!LO:SIC:v:s=8ff#\J
!	!	!	!LO:SIC:s=8gg#J	!	!	!	!	!	!	!	!	!	!
8BB/J	.	8dd\J	8gg#X\J	8BB/	-re	8B\	-xul-	8g#\	-xul-	.	.	8dd\J	8gg\J
=61	=61	=61	=61	=61	=61	=61	=61	=61	=61	=61	=61	=61	=61
8C#/L	.	8cc#\L	4aa\	8C#/	tu-	8e\	-ta-	8e\	-ta-	4r	.	8a/L	8aa\L
!	!	!	!	!	!LO:MO:mod=-um	!	!	!	!	!	!	!	!
8AA/J	.	8cc#\J	.	8AA/	-u(m)	8e\	-bit	8e\	-bit	.	.	8a/	8aa\
*	*	*	*	*	*	*	*Xij	*	*	*	*	*	*
!	!	!	!	!	!	!	!LO:MO:mod=ve-	!	!	!	!	!	!
4D/	.	8a/L	4ff#\	8D\	e-	4.d\	Ve-	8f#\	e-	8a\	e-	8a/	8ff#\
.	.	8a/J	.	8D\	-xul-	.	.	8f#\	-xul-	8a\	-xul-	8dd/J	8ff#\J
!	!	!	!	!LO:LB:g=original	!	!	!	!	!	!	!	!	!LO:LB:g=original
!	!	!	!	!	!	!	!	!	!	!	!	!LO:SIC:v:s=8cc\L	!
4D/	4 2	8g/L	4gg\	8D\L	-ta-	.	.	8e\	-ta-	8g\	-ta-	8ee\L	8gg\L
!	!	!	!	!	!	!	!	!	!	!	!	!LO:SIC:v:s=8dd\J	!
!	!	!	!	!	!	!	!	!	!	!	!	!LO:SIC:s=8dd	!
.	.	8g/	.	16E\L	.	8d\	-he-	8e\	-bit	8g\	-bit	8ff#\J	8gg\
.	.	.	.	16D\JJ	.	.	.	.	.	.	.	.	.
!	!	!	!	!	!	!	!	!	!	!	!	!LO:LB:g=original	!
*	*	*	*	*	*	*	*	*	*	*	*ij	*	*
!	!	!	!	!	!	!	!	!	!	!	!	!LO:SIC:s=8a	!
4C#/	6 x	8g/	4ee\	8C#/L	.	4A/	-men-	8e\	e-	8g\	e-	8a/L	8ee\
.	.	8g/J	.	16BB/L	.	.	.	8e\	-xul-	8g\	-xul-	8a/J	8ee\J
.	.	.	.	16C#/JJ	.	.	.	.	.	.	.	.	.
!	!	!	!LO:LB:g=original	!	!	!	!	!LO:LB:g=original	!	!	!	!	!
=62	=62	=62	=62	=62	=62	=62	=62	=62	=62	=62	=62	=62	=62
4D/	.	8f#/L	4ff#\	8D/	.	4D/	-ter	8d\	-ta-	8f#\	-ta-	8dd\L	8ff#\L
.	.	8f#/	.	8D/	-bit	.	.	8d\	-bit	8f#\	-bit	8dd\	8ff#\
*	*	*	*	*	*	*	*ij	*	*Xij	*	*Xij	*	*
!	!	!	!	!	!LO:MO:mod=ve-	!	!LO:MO:mod=ve-	!	!LO:MO:mod=ve-	!	!	!	!
8B\L	.	8b/	8ff#\L	8B\	Ve-	8d\	Ve-	8f#\	Ve-	8b\	ve-	8dd\	8ff#\
!	!	!	!	!LO:SIC:v:s=8G\	!	!	!	!	!	!	!	!	!
8G\J	6 5	8b/J	8gg\J	8F#\	-he-	8d\	-he-	8e\	-he-	8b\	-he-	8dd\J	8gg\J
4A\	.	4a/	4ee\	4A\	-men-	4c#\	-men-	4e\	-men-	4a\	-men-	4a/	4ee\
!	!	!	!	!	!	!	!	!	!	!	!LO:MO:mod=-ter	!	!
4D/	.	4a/	4dd\	4D/	-ter	4d\	-ter	4f#\	-ter	4a\	-te	4f#/	4dd\
*	*	*	*	*	*	*	*Xij	*	*	*	*	*	*
!LO:LB:g=original	!	!	!	!	!	!	!	!	!	!	!	!	!
=63	=63	=63	=63	=63	=63	=63	=63	=63	=63	=63	=63	=63	=63
!	!	!	!	!	!	!	!	!	!LO:MO:mod=e-	!	!	!	!
8G\L	.	8b\L	8dd\L	8G\	e-	8d\	e-	8g\	E-	8b\	e-	8d/L	8d/L
8F#\	6	8dd\	8ff#\	8F#\	-xul-	8d\	-xul-	8d\	-xul-	8a\	-xul-	16d/L	16d/L
.	.	.	.	.	.	.	.	.	.	.	.	16d/JJ	16d/JJ
!	!	!	!	!	!	!LO:LB:g=original	!	!	!	!	!	!	!
8G\	.	8b\	8dd\	8G\	-ta-	8d\	-ta-	8g\	-ta-	8b\	-ta-	8d/L	16d/LL
.	.	.	.	.	.	.	.	.	.	.	.	.	16d/
8D\J	.	8dd\J	8ff#\J	8D\	-bit	8d\	-bit	8f#\	-bit	8a\	-bit	8d/J	16d/
.	.	.	.	.	.	.	.	.	.	.	.	.	16d/JJ
*	*	*	*	*	*ij	*	*ij	*	*ij	*	*ij	*	*
!	!	!	!	!	!	!	!	!	!LO:MO:mod=e-	!	!	!	!
8G\L	.	8b\L	8dd\L	8G\	e-	8d\	e-	8g\	E-	8b\	e-	16d/LL	8d/L
.	.	.	.	.	.	.	.	.	.	.	.	16d/	.
!	!	!LO:SIC:s=8dd	!	!	!	!	!	!	!	!	!	!	!
8F#\	6	8dd\J	8ff#\	8F#\	-xul-	8d\	-xul-	8d\	-xul-	8a\	-xul-	16d/	8d/
.	.	.	.	.	.	.	.	.	.	.	.	16d/JJ	.
!	!	!LO:LB:g=original	!	!	!	!	!	!	!	!	!	!	!
!	!	!LO:SIC:s=8b	!	!	!	!	!	!	!	!	!	!	!
8G\	.	8b/L	8dd\	8G\	-ta-	8d\	-ta-	8g\	-ta-	8b\	-ta-	8d/L	8d/
8D\J	.	8a/J	8ff#\J	8D\	-bit	8d\	-bit	8f#\	-bit	8a\	-bit	8d/J	8d/J
*	*	*	*	*	*Xij	*	*Xij	*	*Xij	*	*Xij	*	*
!	!	!	!	!	!	!	!	!	!	!LO:LB:g=original	!	!	!
=64	=64	=64	=64	=64	=64	=64	=64	=64	=64	=64	=64	=64	=64
!	!	!	!	!	!LO:MO:mod=ve-	!	!LO:MO:mod=ve-	!	!LO:MO:mod=ve-	!	!	!	!
8G\L	.	4b/	8dd\L	8G\	Ve-	8B\	Ve-	8g\	Ve-	8b\	ve-	2r	2r
8E\J	6 5	.	8ee\	8E\	-he-	8c#\	-he-	8g\	-he-	8ee\	-he-	.	.
!	!	!LO:SIC:v:s=8a#/L	!	!	!	!	!	!	!	!	!	!	!
4F#\	4 x	8a/L	8cc#\	4F#\	-men-	4A#X\	-men-	4f#\	-men-	4cc#\	-men-	.	.
.	.	8cc#/J	8ff#\J	.	.	.	.	.	.	.	.	.	.
!	!	!	!	!	!	!	!	!	!	!	!	!LO:TX:a:t=P:problem=w źródle 2 ósemki, ale z przekreśloną belką (poprawiony błąd kopisty):mod=	!
!	!	!	!	!	!	!	!	!	!	!	!LO:MO:mod=-ter	!	!
!	!	!LO:SIC:v:s=8b/L	!	!	!	!	!	!	!	!LO:SIC:v:s=4ddn\	!LO:MO:mod=-ter	!	!
4BB/	# x	8cc#/L	8dd\L	4BB/	-ter	4B\	-ter	4f#\	-ter	4dd#X\	-te	4f#/	8f#/L
!	!	!LO:SIC:v:s=8b/J	!	!	!	!	!	!	!	!	!	!	!
.	.	8cc#/J	8dd\J	.	.	.	.	.	.	.	.	.	8f#/
4r	.	4a#X/	4cc#\	4r	.	4r	.	4r	.	4r	.	4f#/	8f#/
.	.	.	.	.	.	.	.	.	.	.	.	.	8f#/J
!	!	!	!	!LO:LB:g=original	!	!	!	!	!	!	!	!	!
=65	=65	=65	=65	=65	=65	=65	=65	=65	=65	=65	=65	=65	=65
!	!	!	!	!	!	!	!	!	!LO:MO:mod=e-	!	!	!	!
8B\L	.	8b\L	8dd\L	8B\	e-	8d\	e-	8f#\	E-	8b\	e-	8f#/L	8f#/L
8A#X\	6	8cc#\	8ff#\	8A#X\	-xul-	8c#\	-xul-	8f#\	-xul-	8f#\	-xul-	16f#/L	16f#/L
!	!	!	!	!	!	!	!	!	!	!	!	!	!LO:MO:mod=16f#JJ
.	.	.	.	.	.	.	.	.	.	.	.	16f#/JJ	16f#/J
!	!	!	!	!	!	!	!	!	!	!	!	!	!LO:MO:mod=8f#L
8B\	.	8b\	8dd\	8B\	-ta-	8d\	-ta-	8f#\	-ta-	8b\	-ta-	8f#/L	8f#/
8F#\J	#	8a#X\J	8ff#\J	8F#\	-bit	8c#\	-bit	8f#\	-bit	8a#X\	-bit	8f#/J	8f#/J
*	*	*	*	*	*ij	*	*ij	*	*ij	*	*ij	*	*
!	!	!	!	!	!	!	!	!	!LO:MO:mod=e-	!	!	!	!
8B\L	.	8b\L	8dd\L	8B\	e-	8d\	e-	8f#\	E-	8b\	e-	16f#/LL	8f#/L
.	.	.	.	.	.	.	.	.	.	.	.	16f#/	.
8A#X\	6	8cc#\	8ff#\	8A#X\	-xul-	8c#\	-xul-	8f#\	-xul-	8f#\	-xul-	16f#/	8f#/
.	.	.	.	.	.	.	.	.	.	.	.	16f#/JJ	.
8B\	#	8b\	8dd\	8B\	-ta-	8d\	-ta-	8f#\	-ta-	8b\	-ta-	8f#/L	8f#/
8F#\J	#	8a#X\J	8ff#\J	8F#\	-bit	8c#\	-bit	8f#\	-bit	8a#X\	-bit	8f#/J	8f#/J
!	!	!	!	!	!	!	!	!	!	!	!LO:MO:mod=*Xij:null	!	!
*	*	*	*	*	*Xij	*	*Xij	*	*Xij	*	*null	*	*
!	!	!	!	!	!	!	!	!LO:PB:g=original	!	!	!	!	!
=66	=66	=66	=66	=66	=66	=66	=66	=66	=66	=66	=66	=66	=66
!	!	!	!	!	!	!	!	!	!LO:MO:mod=ve-	!	!LO:MO:mod=ve-	!	!
8B\L	.	8b\L	8dd\L	8B\	ve-	8B\	ve-	8f#\	Ve-	8b\	e-	2r	2r
!	!	!	!	!	!	!	!	!	!	!	!LO:MO:mod=-he-	!	!
8G\J	6 5	8b\J	8dd\J	8G\	-he-	8e\	-he-	8g\	-he-	8b\	-xul-	.	.
!	!	!	!	!	!	!	!	!	!	!	!LO:MO:mod=-men-	!	!
4A\	4 x	4ee\	4aa\	4A\	-men-	4c#\	-men-	4e\	-men-	4a\	-ta-	.	.
.	3 x	.	.	.	.	.	.	.	.	.	.	.	.
!	!	!	!	!	!	!	!	!	!	!	!LO:MO:mod=-ter	!	!
4D/	.	8dd\L	8ff#\L	4D\	-ter	4d\	-ter	4f#\	-ter	4a\	-bit	4a/	4a/
.	.	8dd\J	8ff#\J	.	.	.	.	.	.	.	.	.	.
*	*	*	*	*	*	*	*	*	*	*	*Xij	*	*
!	!	!	!	!	!	!LO:TX:b:Bi:t=Verte Cito.:mod=	!	!	!	!	!	!	!
4r	.	4cc#\	4ee\	4r	.	4rc	.	4r	.	4re	.	4a/	4a/
!	!	!	!	!	!	!LO:PB:g=original	!	!	!	!	!	!LO:LB:g=original	!LO:LB:g=original
=67	=67	=67	=67	=67	=67	=67	=67	=67	=67	=67	=67	=67	=67
!	!	!	!	!	!	!	!	!	!LO:MO:mod=e-	!	!	!	!
8D/L	.	8dd\L	8ff#\L	8d\	e-	8f#\	e-	8a\	E-	8dd\	e-	8a/L	8a/L
8C#/	6	8ee\	8aa\	8c#\	-xul-	8e\	-xul-	8a\	-xul-	8a\	-xul-	16a/L	16a/L
.	.	.	.	.	.	.	.	.	.	.	.	16a/JJ	16a/JJ
8D/	.	8dd\	8ff#\	8d\	-ta-	8f#\	-ta-	8a\	-ta-	8dd\	-ta-	8a/L	16a/LL
.	.	.	.	.	.	.	.	.	.	.	.	.	16a/
!	!	!	!	!	!	!	!	!	!	!LO:TX:b:Bi:t=Verte:mod=	!	!	!
8AA/J	.	8cc#\J	8aa\J	8A\	-bit	8e\	-bit	8a\	-bit	8cc#\	-bit	8a/J	16a/
.	.	.	.	.	.	.	.	.	.	.	.	.	16a/JJ
*	*	*	*	*	*	*	*	*	*	*custos:dd	*	*	*
!	!	!	!	!	!	!	!	!	!	!LO:PB:g=original	!	!	!
*	*	*	*	*	*ij	*	*ij	*	*ij	*	*ij	*	*
!	!	!	!	!	!	!	!	!	!LO:MO:mod=e-	!	!	!	!
8D/L	.	8dd\L	8ff#\L	8d\	e-	8f#\	e-	8a\	E-	8dd\	e-	16a/LL	8a/L
.	.	.	.	.	.	.	.	.	.	.	.	16a/	.
8C#/	6	8ee\	8aa\	8c#\	-xul-	8e\	-xul-	8a\	-xul-	8a\	-xul-	16a/	16a/L
.	.	.	.	.	.	.	.	.	.	.	.	16a/JJ	16a/JJ
8D/	.	8dd\	8ff#\	8d\	-ta-	8f#\	-ta-	8a\	-ta-	8dd\	-ta-	8a/L	8a/L
8AA/J	.	8cc#\J	8aa\J	8A\	-bit	8e\	-bit	8a\	-bit	8cc#\	-bit	8a/J	8a/J
!	!	!	!	!	!	!	!	!	!	!	!LO:MO:mod=*Xij:null	!	!
*	*	*	*	*	*Xij	*	*Xij	*	*Xij	*	*null	*	*
!	!	!	!LO:LB:g=original	!	!	!	!	!	!	!	!	!	!
=68	=68	=68	=68	=68	=68	=68	=68	=68	=68	=68	=68	=68	=68
!LO:SIC:v:s=8D/L	!	!	!	!	!	!	!LO:MO:mod=ve-	!	!LO:MO:mod=ve-	!	!LO:MO:mod=ve-	!	!
8C#/L	.	8dd\L	8ff#\L	8d\	ve-	8d\	Ve-	8a\	Ve-	8dd\	e-	2r	2r
!	!	!	!LO:TX:a:t=P:problem=w źródle # postawiony nad nutą 8gg# jest pomiędzy nutami 8gg# i 4gg#:mod=	!	!	!	!	!	!	!	!	!	!
!	!	!	!LO:TX:a:t=P:problem:# above:mod=	!	!	!	!	!	!	!	!LO:MO:mod=-he-	!	!
8BB/J	6\	8ff#\J	8gg#X\J	8B\	-he-	8d\	-he-	8b\	-he-	8ff#\	-xul-	.	.
!	!	!LO:TX:a:t=P:problem:# above:mod=	!	!LO:LB:g=original	!	!	!	!	!	!	!LO:MO:mod=-men-	!	!
4C#/	#	4ee#X\	4gg#\	4c#\	-men-	4c#\	-men-	4g#X\	-men-	4ee#X\	-ta-	.	.
!LO:LB:g=original	!	!	!	!	!	!	!	!	!	!	!LO:MO:mod=-ter	!	!
4F#\	.	4ff#\	4ff#\	4F#\	-ter	4c#\	-ter	4a\	-ter	4ff#\	-bit	4r	4r
*	*	*	*	*	*	*	*	*	*	*	*Xij	*	*
4F#\	#	8ff#\L	8aa\L	8F#\	e-	8d\	e-	8a\	e-	8ff#\	e-	8ff#\L	8aa\L
.	.	8ff#\J	8aa\J	8F#\	-xul-	8d\	-xul-	8a\	-xul-	8ff#\	-xul-	8ff#\J	8aa\J
!	!	!LO:LB:g=original	!	!	!	!	!	!	!	!	!	!	!
=69	=69	=69	=69	=69	=69	=69	=69	=69	=69	=69	=69	=69	=69
4B\	7	8ff#\L	8.aa\L	8B\	-ta-	4.d\	-ta-	8f#\	-ta-	8dd\	-ta-	8dd\L	8aa\L
.	.	8dd\	.	8B\	-bit	.	.	8f#\	-bit	8dd\	-bit	8dd\	8gg\
.	.	.	16gg\Jk	.	.	.	.	.	.	.	.	.	.
*	*	*	*	*	*ij	*	*	*	*ij	*	*ij	*	*
4E\	7	8ee\	8gg\L	8E\	e-	.	.	8g\	e-	8ee\	e-	8ff#\	8gg\
.	.	8ee\J	8gg\J	8E\	-xul-	16e\LL	.	8g\	-xul-	8ee\	-xul-	8ee\J	8gg\J
.	.	.	.	.	.	16d\JJ	.	.	.	.	.	.	.
!	!	!	!	!	!	!	!	!LO:LB:g=original	!	!	!	!	!
4A\	7	8ee\L	8.gg\L	8A\	-ta-	4.c#\	.	8e\	-ta-	8cc#\	-ta-	8ee\L	8gg\L
.	.	8cc#\	.	8A\	-bit	.	.	8e\	-bit	8cc#\	-bit	8dd\	8ff#\
.	.	.	16ff#\Jk	.	.	.	.	.	.	.	.	.	.
4D\	7	8dd\	8ff#\L	8D\	e-	.	.	8f#\	e-	8dd\	e-	8a\	8ff#\
.	.	8dd\J	8ff#\J	8D\	-xul-	16d\LL	.	8f#\	-xul-	8dd\	-xul-	8dd\J	8ff#\J
.	.	.	.	.	.	16c#\JJ	.	.	.	.	.	.	.
=70	=70	=70	=70	=70	=70	=70	=70	=70	=70	=70	=70	=70	=70
4G\	7 x	8dd\L	8.ff#\L	8G\	-ta-	8B\	.	8d\	-ta-	8b\	-ta-	4dd\	8ff#\L
.	.	8b\J	.	8G\	-bit	8B\	-bit	8d\	-bit	8b\	-bit	.	8ee\J
.	.	.	16ee\Jk	.	.	.	.	.	.	.	.	.	.
*	*	*	*	*	*Xij	*	*	*	*Xij	*	*Xij	*	*
!	!	!	!	!	!LO:MO:mod=ve-	!	!LO:MO:mod=ve-	!	!LO:MO:mod=ve-	!	!	!	!
4G\	6 x	4b\	4dd\	2G\	Ve-	4B\	Ve-	4g\	Ve-	4dd\	ve-	4d/	4dd\
4G\	4 2	8a/L	4ee\	.	.	4c#\	.	4e\	.	(>4ee\	-he-	4a/	4ee\
.	.	8a/	.	.	.	.	.	.	.	.	.	.	.
!	!	!LO:SIC:v:s=8a/	!	!	!	!	!	!	!	!	!	!	!
8F#\L	6 xx	8b/	4ff#\	8F#\L	-he-	4d\	-he-	4a\	-he-	4ff#\)	.	4dd	4ff#\
!	!	!LO:SIC:v:s=8b/J	!	!	!	!	!	!	!	!	!	!	!
8G\J	.	8cc#/J	.	8G\J	.	.	.	.	.	.	.	.	.
*	*	*	*	*	*	*	*	*	*	*custos:ee	*	*	*
!	!	!	!	!	!	!LO:LB:g=original	!	!	!	!LO:LB:g=original	!	!	!
=71	=71	=71	=71	=71	=71	=71	=71	=71	=71	=71	=71	=71	=71
4A\	4	4dd\	2ee\	4A\	-men-	4d\	-men-	2e\	-men-	2ee\	-men-	4a/	4.ee\
4AA/	3	4a/	.	4AA/	.	4c#\	.	.	.	.	.	4a/	.
.	.	.	.	.	.	.	.	.	.	.	.	.	8ee\
2D/	.	2a/	2dd\	2D/	-ter	2d\	-ter	2f#\	-ter	2dd\	-ter	2f#/	2dd\
!	!	!	!	!LO:PB:g=original	!	!	!	!	!	!	!	!LO:LB:g=original	!LO:LB:g=original
=	=	=||	=||	=||	=||	=||	=||	=||	=||	=	=	=||	=||
*M3/2	*	*M3/2	*M3/2	*M3/2	*	*M3/2	*	*M3/2	*	*M3/2	*	*M3/2	*M3/2
!LO:TX:b:Bi:t=Solo:mod=	!	!	!	!	!	!	!	!	!	!	!	!	!
!	!	!	!LO:TX:b:Bi:t=Deſideriu(m).:mod=	!	!	!	!	!	!	!	!	!LO:TX:b:Bi:t=Desiderium.:mod=	!LO:TX:b:Bi:t=Desiderium:mod=
1B	.	00.r	00.r	1.r	.	00.r	.	00.r	.	2r	.	00.r	00.r
.	.	.	.	.	.	.	.	.	.	2ff#\	De-	.	.
2A#X\	6	.	.	.	.	.	.	.	.	2cc#\	-si-	.	.
=72	=72	=72	=72	=72-	=72-	=72	=72	=72	=72	=72	=72	=72	=72
1B	.	.	.	2r	.	.	.	.	.	2.dd\	-de-	.	.
.	.	.	.	2B\	De-	.	.	.	.	.	.	.	.
.	.	.	.	.	.	.	.	.	.	4dd\	-ri-	.	.
2F#\	.	.	.	2A#X\	-si	.	.	.	.	2cc#\	-um	.	.
=73	=73	=73	=73	=73	=73	=73	=73	=73	=73	=73	=73	=73	=73
1G	7	.	.	2.B\	de-	.	.	.	.	2.b\	a-	.	.
!	!	!	!	!	!	!	!	!	!	!LO:N:vis=8:head=half	!	!	!
.	6	.	.	4B\	-ri-	.	.	.	.	4ee\	-ni-	.	.
!	!	!	!	!	!LO:MO:mod=-um	!	!	!	!	!	!	!	!
2F#\	#	.	.	2F#\	-u(m)	.	.	.	.	2a#X\	-mae	.	.
=74	=74	=74	=74	=74	=74	=74	=74	=74	=74	=74	=74	=74	=74
!	!	!	!	!	!	!	!	!	!	!	!LO:MO:mod=e-	!	!
2E\	7 x	.	.	2E\	a-	.	.	.	.	1dd	ei-	.	.
1A	x 4	.	.	[>1A	-ni-	.	.	.	.	.	.	.	.
!	!	!	!	!	!	!	!	!	!	!LO:SIC:v:s=2cc#\	!LO:MO:mod=-ius	!	!
.	7 3	.	.	.	.	.	.	.	.	2dd\	-u(s)	.	.
!LO:LB:g=original	!	!	!	!	!	!	!	!	!	!	!	!	!
=75	=75	=75	=75	=75	=75	=75	=75	=75	=75	=75	=75	=75	=75
1D	7	00.r	00.r	2A\]	.	00.r	.	0.r	.	2.cc#\	a-	00.r	00.r
.	.	.	.	2D\	-mae	.	.	.	.	.	.	.	.
!	!	!	!	!	!	!	!	!	!	!LO:N:vis=8:head=half	!	!	!
.	.	.	.	.	.	.	.	.	.	4f#/	-ni-	.	.
2G\	6	.	.	2G\	.	.	.	.	.	2b\	-mae	.	.
=76	=76	=76	=76	=76	=76	=76	=76	=76	=76	=76	=76	=76	=76
2F#\	4	.	.	1F#	e-	.	.	.	.	1b	e-	.	.
1F#	4	.	.	.	.	.	.	.	.	.	.	.	.
.	3	.	.	2F#\	-ius	.	.	.	.	2a#X\	-ius	.	.
!	!	!	!	!	!	!	!	!	!	!LO:LB:g=original	!	!	!
=77	=77	=77	=77	=77	=77	=77	=77	=77-	=77-	=77	=77	=77	=77
!	!	!	!	!	!	!	!	!	!	!LO:TX:a:t=P:problem=w źródle pod nutą 1b kreska; prawdopodobnie kontynuacja sylaby '-ius':mod=	!	!	!
1.D	6	.	.	2r	.	.	.	2re	.	1b	.	.	.
.	.	.	.	2D\	tri-	.	.	2b\	De-	.	.	.	.
!	!	!	!	!	!	!	!	!	!LO:MO:mod=-si-	!	!	!	!
.	.	.	.	2D\	-bu-	.	.	2f#\	-ſi-	2r	.	.	.
=78	=78	=78	=78	=78	=78	=78	=78	=78	=78	=78	=78	=78	=78
1.E	.	.	.	1E	-is-	.	.	2.g\	-de-	2r	.	.	.
.	.	.	.	.	.	.	.	.	.	2b\	tri-	.	.
.	.	.	.	.	.	.	.	4g\	-ri-	.	.	.	.
.	.	.	.	2E\	-ti	.	.	2f#\	-um	2ee\	-bu-	.	.
!	!	!	!	!LO:LB:g=original	!	!	!	!	!	!	!	!	!
=79-	=79-	=79	=79	=79	=79	=79-	=79-	=79	=79	=79-	=79-	=79	=79
2F#\	7	00.r	00.r	2r	.	2r	.	2e\	a-	1cc#	-is-	00.r	00.r
*	*	*	*	*	*ij	*	*	*	*	*	*	*	*
1F#	6	.	.	2F#\	tri-	2A\	tri-	1a	.	.	.	.	.
.	.	.	.	2F#\	-bu-	2A\	-bu-	.	.	2a\	-ti	.	.
!	!	!	!	!	!	!	!	!LO:LB:g=original	!	!	!	!	!
=80	=80	=80	=80	=80	=80	=80	=80	=80	=80	=80	=80	=80	=80
!	!	!	!	!	!	!	!	!LO:SIC:v:s=2a/	!	!	!	!	!
1G	9 7	.	.	1G	-is-	1B	-is-	2A/	.	1dd	e-	.	.
!	!	!	!	!	!	!	!	!LO:SIC:v:s=2d\	!	!	!	!	!
.	.	.	.	.	.	.	.	2a\	.	.	.	.	.
!	!	!	!	!	!	!	!	!LO:SIC:v:s=2g\	!	!	!	!	!
2G\	8 6	.	.	2G\	-ti	2B\	-ti	2d\	.	2dd\	-i	.	.
=81	=81	=81	=81	=81-	=81-	=81	=81	=81	=81	=81	=81	=81	=81
1A	7	.	.	2rF	.	2r	.	2g\	.	2r	.	.	.
*	*	*	*	*	*	*	*ij	*	*	*	*ij	*	*
.	.	.	.	2A\	tri-	2c#\	tri-	2c#/	.	2a\	tri-	.	.
!	!	!	!	!	!	!	!	!LO:SIC:v:s=1f#	!	!	!	!	!
2A\	6	.	.	2A\	-bu-	2c#\	-bu-	1g\	.	2a\	-bu-	.	.
=82	=82	=82	=82	=82	=82	=82	=82	=82-	=82-	=82-	=82-	=82	=82
1B	.	.	.	1B	-is-	1d	-is-	.	.	1dd	-is-	.	.
.	.	.	.	.	.	.	.	2B/	-ni-	.	.	.	.
2E\	.	.	.	2E\	-ti	2B\	-ti	2g\	-mae	2ee\	-ti	.	.
*	*	*	*	*	*Xij	*	*Xij	*	*	*	*	*	*
=83	=83	=83	=83	=83-	=83-	=83	=83	=83	=83	=83-	=83-	=83	=83
1.F#	#	1.r	1.r	1.F#	e-	(>1B	e-	1.f#	e-	1.cc#	e-	00.r	00.r
.	.	.	.	.	.	2A#X\)	.	.	.	.	.	.	.
!	!	!LO:TX:b:Bi:t=Verte Cito:mod=	!LO:TX:b:Bi:t=Verte \nCitiſsime \n{...}:problem=w źródle ostatni wiersz zapisu słownego przypomina słowa 'odzdzi drągu.':mod=	!	!	!	!	!	!	!	!	!	!
!	!	!LO:PB:g=original	!LO:PB:g=original	!	!	!	!	!	!	!	!	!	!
=84	=84	=84	=84	=84	=84	=84	=84	=84	=84	=84-	=84-	=84	=84
!	!	!	!	!	!	!	!	!	!	!LO:MO:mod=2b	!	!	!
2BB/	.	2r	2r	2BB/	-i	2B\	-i	2f#\	-ius	1.b	-i	.	.
!LO:MO:null:mod=*null	!	!	!	!	!	!	!	!	!	!	!	!	!
*clefC3	*	*	*	*	*	*	*	*	*	*	*Xij	*	*
*k[f#c#]	*	*	*	*	*	*	*	*	*	*	*	*	*
!	!	!	!	!	!	!	!	!	!	!LO:MO:null:mod=2r	!	!	!
2d\	6	2ff#\	2bb\	2rBB	.	2r	.	2d\	tri-	.	.	.	.
!	!	!	!	!	!	!	!	!	!	!LO:MO:null:mod=2r	!	!	!
2d\	.	2bb\	2ff#\	2rBB	.	2r	.	2d\	-bu-	.	.	.	.
!LO:LB:g=original	!	!	!	!	!	!	!	!	!	!	!	!	!
=85	=85	=85	=85	=85	=85	=85-	=85-	=85	=85	=85-	=85-	=85	=85
1e	7	1ee	2.gg\	00.r	.	00.r	.	1e	-is-	00.r	.	.	.
.	.	.	4gg\	.	.	.	.	.	.	.	.	.	.
2e\	6	2ee\	2ff#\	.	.	.	.	2e\	-ti	.	.	.	.
=86	=86	=86	=86	=86	=86	=86	=86	=86	=86	=86	=86	=86	=86
1f#	7	2aa\	2ee\	.	.	.	.	2re	.	.	.	.	.
*	*	*	*	*	*	*	*	*	*ij	*	*	*	*
.	.	2ee\	1aa	.	.	.	.	2f#\	tri-	.	.	.	.
2f#\	6	[>2ff#\	.	.	.	.	.	2f#\	-bu-	.	.	.	.
=87	=87	=87	=87	=87	=87	=87	=87	=87	=87	=87	=87	=87	=87
1g	9 7	2ff#\]	2aa\	.	.	.	.	1g	-is-	.	.	00.r	00.r
.	.	2b\	2dd\	.	.	.	.	.	.	.	.	.	.
2g\	8 6	2ee\	2gg\	.	.	.	.	2g\	-ti	.	.	.	.
*	*	*	*	*	*	*	*	*	*Xij	*	*	*	*
=88	=88	=88	=88	=88	=88	=88	=88	=88	=88	=88	=88	=88	=88
1a	7	2ee\	2gg\	.	.	.	.	2re	.	.	.	.	.
.	.	2a/	2cc#\	.	.	.	.	2a\	tri-	.	.	.	.
2a\	6	2a/	1ff#	.	.	.	.	2a\	-bu-	.	.	.	.
!	!	!	!	!	!	!	!	!LO:LB:g=original	!	!	!	!	!
=89-	=89-	=89	=89-	=89	=89	=89	=89	=89	=89	=89	=89	=89	=89
1b	7 x	1dd	.	00.r	.	00.r	.	1b	-is-	00.r	.	.	.
.	6 x	.	2b\	.	.	.	.	.	.	.	.	.	.
!	!	!	!LO:SIC:v:s=[>2ee\	!	!	!	!	!	!	!	!	!	!
1e	6 5	2b/	[>2ff#\	.	.	.	.	1e	-ti	.	.	.	.
=90-	=90-	=90	=90	=90	=90	=90	=90	=90-	=90-	=90	=90	=90	=90
!	!	!	!LO:SIC:v:s=4ee\]	!	!	!	!	!	!	!	!	!	!
!	!	!	!LO:MO:mod=!null:null	!	!	!	!	!	!	!	!	!	!
!	!	!	!LO:N:vis=xstem:cue	!	!	!	!	!	!	!	!	!	!
.	.	2b/	4ff#\]	.	.	.	.	.	.	.	.	.	.
.	.	.	4cc#\	.	.	.	.	.	.	.	.	.	.
1f#	#	2b/	1cc#	.	.	.	.	1f#	e-	.	.	.	.
.	.	2a#X/	.	.	.	.	.	.	.	.	.	.	.
=91	=91	=91	=91	=91	=91	=91	=91	=91	=91	=91	=91	=91	=91
2B/	#	2b/	2b/	.	.	.	.	2B/	-i	.	.	00.r	00.r
!LO:MO:null:mod=*null	!	!	!	!	!	!	!	!	!	!	!	!	!
*clefF4	*	*	*	*	*	*	*	*	*	*	*	*	*
2BB/	.	2gg\	2bb\	.	.	.	.	2rB	.	.	.	.	.
2BB/	.	2gg\	[>2bb\	.	.	.	.	2rB	.	.	.	.	.
!	!	!LO:LB:g=original	!	!	!	!	!	!	!	!	!	!	!
=92	=92	=92	=92	=92	=92	=92	=92	=92-	=92-	=92	=92	=92	=92
!LO:SIC:v:s=1Cn	!	!	!	!	!	!	!	!	!	!	!	!	!
1C-X	7 x	2ee\	2bb\]	.	.	.	.	0.r	.	.	.	.	.
!	!	!LO:SIC:v:s=2ccn\	!	!	!	!	!	!	!	!	!	!	!
.	6 x	2cc-X\	2ee\	.	.	.	.	.	.	.	.	.	.
!	!	!	!LO:LB:g=original	!	!	!	!	!	!	!	!	!	!
1AA	6 5	[>2ee\	2aa\	.	.	.	.	.	.	.	.	.	.
=93-	=93-	=93	=93	=93	=93	=93	=93	=93	=93	=93	=93	=93	=93
.	.	1ee]	2aa\	00.r	.	1.r	.	.	.	1.r	.	.	.
1BB	4	.	2ff#\	.	.	.	.	.	.	.	.	.	.
.	#	2dd#X\	2ff#\	.	.	.	.	.	.	.	.	.	.
!	!	!	!	!	!	!LO:LB:g=original	!	!	!	!	!	!	!
=94	=94	=94	=94	=94	=94	=94	=94	=94	=94	=94-	=94-	=94	=94
!	!	!	!LO:TX:a:t=P:problem:# above:mod=	!	!	!	!	!	!	!	!	!	!
2E\	.	2ee\	2gg#X\	.	.	2rc	.	2r	.	2re	.	.	.
!LO:MO:null:mod=*null	!	!	!	!	!	!	!	!	!	!	!	!	!
*clefC4	*	*	*	*	*	*	*	*	*	*	*	*	*
*k[f#c#]	*	*	*	*	*	*	*	*	*	*	*	*	*
!	!	!	!	!	!	!	!LO:MO:mod=De-	!	!LO:MO:mod=De-	!	!	!	!
2e\	-n	2rdd	2rdd	.	.	2e\	de-	2g\	de-	2b\	De-	.	.
!	!	!	!	!	!	!	!LO:MO:mod=-si-	!	!	!	!LO:MO:mod=-si-	!	!
2d#X\	6	2rdd	2rdd	.	.	2d#X\	-ſi-	2f#\	-si-	2b\	-ſi-	.	.
!LO:LB:g=original	!	!	!	!	!	!	!	!	!	!LO:LB:g=original	!	!	!
=95	=95	=95-	=95	=95	=95	=95	=95	=95	=95	=95	=95	=95	=95
1e	.	0.r	0.r	.	.	2.e\	-de-	2.g\	-de-	2.b\	-de-	0.r	0.r
.	.	.	.	.	.	4e\	-ri-	4g\	-ri-	4b\	-ri-	.	.
2B\	#	.	.	.	.	2B\	-um	2f#\	-um	2b\	-um	.	.
=96	=96	=96	=96	=96	=96	=96	=96	=96	=96	=96	=96	=96	=96
!	!	!	!	!	!	!LO:SIC:v:s=2.cn\	!	!	!	!	!	!	!
1cn	4	.	.	.	.	2.c-X\	a-	2.e\	a-	2.b\	a-	.	.
!	!	!	!	!	!	!LO:SIC:v:s=4c\	!	!	!	!LO:N:vis=8:head=half	!	!	!
.	6	.	.	.	.	4c-\	-ni-	4e\	-ni-	4a\	-ni-	.	.
!	!	!	!	!	!	!	!	!	!	!LO:SIC:v:s=2ccn\	!	!	!
2A\	.	.	.	.	.	2A\	-mae	2f#\	-mae	2cc-X\	-mae	.	.
=97-	=97-	=97	=97	=97	=97	=97	=97	=97	=97	=97	=97	=97	=97
1B	4	1.rff	1.r	1.rD	.	1B	e-	1e	e-	1b	e-	1.r	1.r
2B\	#	.	.	.	.	2B\	-ius	2d#X\	-ius	2b\	-ius	.	.
=98	=98	=98-	=98-	=98	=98	=98	=98	=98	=98	=98	=98	=98	=98-
!LO:MO:null:mod=*null	!	!	!	!	!	!	!	!	!	!	!	!	!
*clefF4	*	*	*	*	*	*	*	*	*	*	*	*	*
!LO:MO:null:mod=*null	!	!	!	!	!	!	!	!	!	!	!	!	!
*k[f#c#]	*	*	*	*	*	*	*	*	*	*	*	*	*
!LO:TX:a:t=P:problem=znak przykluczowy f# zapisany w dwóch oktawach:mod=	!	!	!	!	!	!	!	!	!	!	!	!	!
1B	.	2r	2r	2r	.	2rc	.	2r	.	2r	.	2r	2r
*	*	*	*	*	*	*	*ij	*	*ij	*	*	*	*
!	!	!	!	!	!LO:MO:mod=de-	!	!	!	!	!	!	!	!
.	.	2dd\	2ff#\	2B\	De-	2f#\	de-	2f#\	de-	2dd\	de-	2dd\	2ff#\
!	!	!LO:SIC:v:s=2cc#\	!	!	!LO:MO:mod=-si-	!	!LO:MO:mod=-si-	!	!	!	!LO:MO:mod=-si-	!	!
2A#X\	6	2b\	2ff#\	2A#X\	-ſi-	2c#\	-ſi-	2f#\	-si-	2cc#\	-ſi-	2ff#\	2ff#\
!	!	!	!	!	!	!	!	!LO:LB:g=original	!	!	!	!	!
=99	=99	=99	=99	=99	=99	=99	=99	=99	=99	=99-	=99-	=99	=99
!	!	!	!	!	!	!	!	!	!	!	!	!LO:TX:a:t=P:problem=pominięty fragment:mod=	!
!	!	!	!	!	!	!	!	!	!	!	!	!LO:MO:mod=2.ff#	!
1B	.	2.b\	2.ff#\	2.B\	-de-	2.d\	-de-	2.f#\	-de-	2.b\	-de-	1.ryy	2.ff#\
!	!	!	!	!	!	!	!	!	!	!	!	!LO:MO:null:mod=4ff#	!
.	.	4b\	4ff#\	4B\	-ri-	4d\	-ri-	4f#\	-ri-	4b\	-ri-	.	4ff#\
!	!	!	!	!LO:LB:g=original	!	!	!	!	!	!	!	!LO:MO:null:mod=2ff#	!
2F#\	.	2a#X\	2ff#\	2F#\	-um	2c#\	-um	2f#\	-um	2a#X\	-um	.	2ff#\
=100	=100	=100	=100	=100	=100	=100	=100	=100	=100	=100	=100	=100	=100
1G	7	2.b\	2dd\	2.G\	a-	2.B\	a-	2f#\	a-	2.b\	a-	2.dd\	2.dd\
.	6	.	2dd\	.	.	.	.	2d\	-ni-	.	.	.	.
.	.	4b\	.	4G\	-ni-	4B\	-ni-	.	.	4b\	-ni-	4dd\	4dd\
2E\	6	2cc#\	2gg\	2E\	-mae	2e\	-mae	2g\	-mae	2cc#\	-mae	2gg\	2gg\
!	!	!	!	!	!	!	!	!	!	!LO:LB:g=original	!	!	!
=101	=101	=101	=101-	=101	=101	=101	=101	=101-	=101-	=101	=101	=101	=101
1F#	4	1b	1ff#	1F#	e-	1c#	e-	1f#	e-	1b	e-	1ff#	1ff#
!	!	!	!	!	!	!	!	!	!	!LO:SIC:v:s=2a#\	!	!	!
2F#\	#	2a#X/	2ff#\	2F#\	-ius	2c#\	-ius	2f#\	-ius	2a\	-ius	2ff#\	2ff#\
*	*	*	*	*	*	*	*Xij	*	*Xij	*	*	*	*
!	!	!LO:LB:g=original	!	!	!	!LO:LB:g=original	!	!	!	!	!	!	!
=102	=102	=102	=102	=102	=102	=102	=102	=102	=102	=102	=102	=102	=102
!	!	!	!	!	!	!	!	!	!	!LO:TX:a:t=P:problem=pominięty fragment; brak dwóch taktów pauz:mod=	!	!	!
1D	5	00.r	00.r	2r	.	00.r	.	2re	.	1.ryy	.	00.r	00.r
.	.	.	.	2D\	tri-	.	.	2a\	tri-	.	.	.	.
2D\	6	.	.	2D\	-bu-	.	.	2a\	-bu-	.	.	.	.
=103	=103	=103	=103	=103	=103	=103	=103	=103	=103	=103	=103	=103	=103
1E	4	.	.	1E	-is-	.	.	1a	-is-	1.ryy	.	.	.
2E\	6	.	.	2E\	-ti	.	.	2g\	-ti	.	.	.	.
!LO:LB:g=original	!	!	!	!	!	!	!	!	!	!	!	!	!
=104	=104	=104	=104	=104	=104	=104	=104	=104	=104	=104	=104	=104	=104
1F#	6	.	.	2r	.	.	.	2re	.	2r	.	.	.
*	*	*	*	*	*ij	*	*	*	*ij	*	*	*	*
.	.	.	.	2F#\	tri-	.	.	2f#\	tri-	2a\	tri-	.	.
2F#\	.	.	.	2F#\	-bu-	.	.	2f#\	-bu-	2a\	-bu-	.	.
=105-	=105-	=105	=105	=105	=105	=105	=105	=105-	=105-	=105	=105	=105	=105
2G\	.	.	.	1G	-is-	.	.	1f#	-is-	(>2.b\	-is-	.	.
1G	6 8	.	.	.	.	.	.	.	.	.	.	.	.
!	!	!	!	!	!	!	!	!	!	!LO:SIC:v:s=4cc#\)	!	!	!
.	.	.	.	.	.	.	.	.	.	4b\)	.	.	.
.	.	.	.	2G\	-ti	.	.	2e\	-ti	2cc#\	-ti	.	.
*	*	*	*	*	*Xij	*	*	*	*Xij	*	*	*	*
=106	=106	=106	=106	=106	=106	=106	=106	=106	=106	=106	=106	=106	=106
1.A	4	1.r	1.r	1.A	e-	0.r	.	1.e	e-	(>1dd	e-	00.r	00.r
!	!	!	!	!	!	!	!	!	!	!LO:MO:mod=!null:null	!	!	!
!	!	!	!	!	!	!	!	!	!	!LO:N:vis=2.	!	!	!
.	3	.	.	.	.	.	.	.	.	2cc#\)	.	.	.
=107	=107	=107	=107	=107	=107	=107	=107	=107	=107	=107-	=107-	=107	=107
!	!	!	!	!LO:MO:mod=2D	!	!	!	!	!	!LO:MO:mod=2dd	!	!	!
2D\	.	2dd\	2ff#\	1.D	-i	.	.	2f#\	-i	1dd	-i	.	.
!	!	!	!	!LO:MO:null:mod=2r	!	!	!	!	!	!LO:MO:null:mod=2r	!	!	!
2F#\	6	2a/	2dd\	.	.	.	.	2r	.	.	.	.	.
!	!	!	!	!LO:MO:null:mod=2r	!	!	!	!	!	!	!	!	!
2D\	.	2dd\	2ff#\	.	.	.	.	2r	.	2r	.	.	.
!	!	!	!LO:LB:g=original	!LO:LB:g=original	!	!	!	!	!	!	!	!	!
=108	=108	=108	=108	=108	=108	=108-	=108-	=108-	=108-	=108	=108	=108	=108
!LO:MO:null:mod=*null	!	!	!	!	!	!	!	!	!	!	!	!	!
*clefC4	*	*	*	*	*	*	*	*	*	*	*	*	*
!LO:MO:null:mod=*null	!	!	!	!	!	!	!	!	!	!	!	!	!
*k[f#c#]	*	*	*	*	*	*	*	*	*	*	*	*	*
!	!	!	!	!LO:TX:b:B:t=5	!	!	!	!	!	!	!	!	!
1A	4	1dd	1ee	00.r	.	2r	.	0.r	.	2rb	.	.	.
.	3	.	.	.	.	2A\	tri-	.	.	2ee\	tri-	.	.
2A\	.	2cc#\	2aa\	.	.	2A\	-bu-	.	.	2ee\	-bu-	.	.
=109	=109	=109	=109	=109	=109	=109	=109	=109	=109	=109	=109	=109	=109
!	!	!LO:TX:a:t=P:problem=zapis partii w dwóch kolejnych taktach niepewny:mod=	!LO:TX:a:t=P:problem=zapis partii w dwóch kolejnych taktach niepewny:mod=	!	!	!	!	!	!	!	!	!	!
!	!	!	!LO:SIC:v:s=1ff#	!	!	!	!	!	!	!	!	!	!
1B	4	1.ee	1gg	.	.	1B	-is-	.	.	1ee	-is-	.	.
!	!	!	!LO:SIC:v:s=2ff#\	!	!	!	!	!	!	!	!	!	!
2B\	-n	.	2gg\	.	.	2B\	-ti	.	.	2dd\	-ti	.	.
!	!	!	!	!	!	!	!	!LO:LB:g=original	!	!	!	!	!
=110	=110	=110	=110	=110	=110	=110	=110	=110	=110	=110	=110	=110	=110
!	!	!	!LO:SIC:v:s=1ee	!	!	!	!	!	!	!	!	!	!
!	!	!	!LO:MO:mod=1.ee	!	!	!	!	!	!	!	!	!	!
1c#	6	1.cc#	1ff#	.	.	2r	.	2r	.	2rb	.	0.r	0.r
*	*	*	*	*	*	*	*ij	*	*	*	*	*	*
.	.	.	.	.	.	2c#\	tri-	2e\	tri-	2cc#\	tri-	.	.
!	!	!	!LO:MO:mod=.:null	!	!	!	!	!	!	!	!	!	!
2c#\	.	.	2rdd	.	.	2c#\	-bu-	2e\	-bu-	2cc#\	-bu-	.	.
!	!	!	!	!	!	!	!	!	!	!LO:LB:g=original	!	!	!
=111-	=111-	=111	=111-	=111	=111	=111	=111	=111	=111	=111	=111	=111	=111
!	!	!	!	!	!	!	!	!	!	!LO:MO:mod=1cc#	!	!	!
1d	.	0.r	0.r	.	.	1d	-is-	(>2.f#\	-is-	(>2cc#\	-is-	.	.
!	!	!	!	!	!	!	!	!	!	!LO:MO:mod=.:null	!	!	!
.	.	.	.	.	.	.	.	.	.	2cc#\)	.	.	.
!	!	!	!	!	!	!	!	!LO:TX:a:t=P:problem:# above:mod=	!	!	!	!	!
.	.	.	.	.	.	.	.	4g#X\)	.	.	.	.	.
2d\	6 5	.	.	.	.	2d\	-ti	2a\	-ti	2b\	-ti	.	.
*	*	*	*	*	*	*	*Xij	*	*	*	*	*	*
=112-	=112-	=112	=112	=112	=112	=112	=112	=112	=112	=112	=112	=112	=112
1.e	4	.	.	1.r	.	(>1e	e-	(>1a	e-	1.b	e-	1.r	1.r
.	3	.	.	.	.	2E/)	.	2g#X\)	.	.	.	.	.
!!LO:MO:ori
=113	=113	=113	=113	=113	=113	=113	=113	=113	=113	=113	=113	=113	=113
!	!	!LO:TX:a:t=P:problem=niepotrzebnie powtórzony fragment	!LO:TX:a:t=P:problem=niepotrzebnie powtórzony fragment	!	!	!	!	!	!	!	!	!	!
1.ryy	.	1.r	1.r	1.ryy	.	1.ryy	.	1.ryy	.	1.ryy	.	1.ryy	1.ryy
!!LO:MO:end
=114	=114	=114-	=114-	=114	=114	=114	=114	=114	=114	=114	=114	=114	=114
2A/	.	2rdd	2rdd	2r	.	2A/	-i	2a\	-i	2cc#\	-i	2r	2r
!LO:MO:null:mod=*null	!	!	!	!	!	!	!	!	!	!	!	!	!
*clefF4	*	*	*	*	*	*	*	*	*	*	*	*	*
2D/	.	2rdd	2aa\	2D/	tri-	2d\	tri-	2f#\	tri-	2r	.	2ff#\	2aa\
2D/	.	2ff#\	2aa\	2D/	-bu-	2d\	-bu-	2f#\	-bu-	2r	.	2ff#\	2aa\
!LO:LB:g=original	!	!	!	!	!	!	!	!	!	!	!	!	!LO:LB:g=original
=115	=115	=115	=115	=115	=115	=115	=115	=115	=115	=115-	=115-	=115	=115
1E	9 4	1ff#	1aa	1E	-is-	1B	-is-	1e	-is-	1.r	.	1ff#	1aa
!	!	!LO:TX:a:t=P:problem=w źródle następny jeden takt wykreślony przez skryptora:mod=	!	!	!	!	!	!	!	!	!	!	!
2E\	8 3	2ee\	2gg\	2E\	-ti	2B\	-ti	2e\	-ti	.	.	2ee\	2gg\
!	!	!	!	!	!	!	!	!	!	!	!	!LO:LB:g=original	!
=116	=116	=116	=116	=116	=116	=116	=116	=116	=116	=116-	=116-	=116	=116
1F#	6	2rdd	2rdd	2r	.	2r	.	2r	.	2r	.	2r	2r
*	*	*	*	*	*ij	*	*ij	*	*ij	*	*	*	*
.	.	2aa\	2ff#\	2F#\	tri-	2f#\	tri-	2d\	tri-	2a\	tri-	2aa\	2ff#\
2F#\	.	[>2aa\	2ff#\	2F#\	-bu-	2f#\	-bu-	2d\	-bu-	2a\	-bu-	2aa\	2ff#\
!	!	!	!	!	!	!LO:LB:g=original	!	!	!	!	!	!	!
=117	=117	=117	=117	=117	=117	=117	=117	=117	=117	=117	=117	=117	=117
!	!	!	!	!	!	!	!	!	!	!	!LO:MO:mod=-is-	!	!
1G	9 4	2aa\]	1ff#	1G	-is-	1d	-is-	1g	-is-	1b	-iſ-	1aa	1ff#
.	.	2aa\	.	.	.	.	.	.	.	.	.	.	.
2G\	8 6	2gg\	2ee\	2G\	-ti	2d\	-ti	2g\	-ti	2b\	-ti	2gg\	2ee\
*	*	*	*	*	*Xij	*	*Xij	*	*Xij	*	*	*	*
!	!	!LO:LB:g=original	!	!	!	!	!	!	!	!	!	!	!
=118	=118	=118	=118	=118	=118	=118	=118	=118	=118	=118	=118	=118	=118
1.A	.	2gg\	2ee\	1.A	e-	(>2d\	e-	1.e	e-	2r	.	2gg\	2ee\
*	*	*	*	*	*	*	*	*	*	*	*ij	*	*
.	.	1ee	1aa	.	.	2c#\	.	.	.	2cc#\	tri-	2.ee\	1aa
.	.	.	.	.	.	2A/)	.	.	.	2cc#\	-bu-	.	.
.	.	.	.	.	.	.	.	.	.	.	.	4ee\	.
!	!	!	!	!	!	!	!	!LO:LB:g=original	!	!	!	!	!
=119	=119	=119	=119	=119	=119	=119	=119	=119	=119	=119	=119	=119	=119
!	!	!	!	!	!	!	!	!	!	!	!LO:MO:mod=-is-	!	!
1.D	.	2dd\	2ff#\	2D/	-i	2A/	-i	2f#\	-i	1dd	-iſ-	2dd\	2ff#\
.	.	2ff#\	2aa\	2D/	tri-	2A/	tri-	2f#\	tri-	.	.	2ff#\	2aa\
.	.	2ff#\	2aa\	2D/	-bu-	2A/	-bu-	2f#\	-bu-	2dd\	-ti	2ff#\	2aa\
*	*	*	*	*	*	*	*	*	*	*	*Xij	*	*
!	!	!	!LO:LB:g=original	!	!	!	!	!	!	!	!	!	!
=120	=120	=120	=120	=120	=120	=120	=120	=120	=120	=120	=120	=120	=120
!LO:TX:a:t=P:problem=w źródle pod cyfrowaniem '6 5' jest wyblakłe 3 i 4:mod=	!	!	!	!	!	!	!	!	!	!	!	!	!
1.GG	6 5	1.dd	1bb	1G	-is-	1B	-is-	1g	-is-	2r	.	1.dd	1aa
.	.	.	.	.	.	.	.	.	.	2dd\	tri-	.	.
.	.	.	2gg\	2G\	-ti	2B\	-ti	2g\	-ti	2dd\	-bu-	.	[>2gg\
*	*	*	*	*	*	*	*	*	*	*custos:gg	*	*	*
!	!	!	!	!LO:LB:g=original	!	!	!	!	!	!LO:LB:g=original	!	!	!
=121	=121	=121	=121	=121	=121	=121	=121	=121	=121	=121	=121	=121	=121
*	*	*	*	*	*	*	*ij	*	*ij	*	*	*	*
!	!	!	!	!LO:TX:a:t=P:problem=pominięty fragment:mod=	!	!	!	!	!	!	!	!	!
1.AA	6 4	1a	2gg\	1.ryy	.	2.c#\	tri-	2e\	tri-	2gg\	-is-	2a/	2gg\]
.	5 3	.	2ee\	.	.	.	.	2a\	-bu-	(>2ee\	-ti	2a/	2ee\
.	.	.	.	.	.	4c#\	-bu-	.	.	.	.	.	.
.	.	2dd\	2ff#\	.	.	2d\	-is-	2f#\	-is-	2ff#\)	.	2dd\	2ff#\
=122	=122	=122	=122	=122	=122	=122	=122	=122	=122	=122	=122	=122	=122
1.AA	6 4	1dd	1.ee	1A	e-	2d\	-ti	2d\	-ti	1.ee	e-	1dd	1.ee
*	*	*	*	*	*	*	*Xij	*	*Xij	*	*	*	*
.	7 3	.	.	.	.	2d\	e-	1e	e-	.	.	.	.
.	.	2a/	.	2AA/	.	2c#\	.	.	.	.	.	2a/	.
=123	=123	=123	=123-	=123	=123	=123	=123	=123	=123	=123-	=123-	=123	=123
1.D	.	1.a	1.dd	1.D	-i	1.d	-i	1.f#	-i	1.dd;>	-i	1.f#	1.dd
!	!	!	!	!LO:TX:b:Bi:t=Laus Deo Patri:mod=	!	!LO:TX:b:Bi:t=Laus Deo Patri {...}:mod=	!	!LO:TX:b:Bi:t=Laus Deo Patri {...}:mod=	!	!LO:TX:b:Bi:t=Laus Deo Patri {...}:mod=	!	!	!
==	==	==	==	==	==	==	==	==	==	==	==	==	==
*-	*-	*-	*-	*-	*-	*-	*-	*-	*-	*-	*-	*-	*-
!!!system-decoration: [(s1,s2)][(s3,s4,s5,s6)][(s7,s8)]s9
!!LO:MO:ori
!!!RDF**kern: > = above
!!!RDF**kern: < = below
!!LO:MO:end
!!!filter-modern: sic -sq | autostem -r | tie -s | shed -k -e "s/[<>]//g" | shed -e "s/^custos:/Xcustos:/I" | shed -e "s/-//B" | shed -e "s/yy//" | modori -m
!!!ENC: Andrzej Borzym
!!!END: 2020-04-24
!!!EED: Wojciech Jakubiak-Danek
!!!EEV: 2020-10-10
!!!ENC-modern: Marta Lawrence
!!!END-modern: 2022-06-21
